;FLAVOR:UltiGCode
;TIME:105631
;MATERIAL:37372
;MATERIAL2:0
;NOZZLE_DIAMETER:0.4
;Generated with Cura_SteamEngine 2.3.1

;LAYER_COUNT:186
;LAYER:0
M107
G10
G0 F1800 X114.415 Y65.965 Z.3
;TYPE:SKIRT
G11
G1 X114.715 Y65.558 E0.06067
G1 X115.075 Y65.203 E0.12135
G1 X115.365 Y64.985 E0.16488
G1 X119.65 Y62.14 E0.7821
G1 X120.092 Y61.895 E0.84274
G1 X120.416 Y61.767 E0.88454
G1 X120.849 Y61.624 E0.93926
G1 X121.341 Y61.504 E1.00004
G1 X121.844 Y61.463 E1.0606
G1 X122.349 Y61.502 E1.12138
G1 X122.866 Y61.628 E1.18523
G1 X128.386 Y63.471 E1.88358
G1 X132.959 Y64.734 E2.45288
G1 X133.434 Y64.907 E2.51354
G1 X133.757 Y65.077 E2.55735
G1 X134.551 Y65.555 E2.66856
G1 X134.765 Y65.696 E2.69931
G1 X137.016 Y67.31 E3.03169
G1 X141.605 Y70.314 E3.68987
G1 X146.367 Y73.059 E4.34945
G1 X151.246 Y75.515 E5.00492
G1 X156.316 Y77.718 E5.66828
G1 X158.808 Y78.676 E5.98865
G1 X163.857 Y80.391 E6.62853
G1 X164.509 Y80.698 E6.71501
G1 X165.798 Y81.494 E6.89681
G1 X166.206 Y81.793 E6.95751
G1 X166.562 Y82.152 E7.01818
G1 X166.857 Y82.563 E7.07889
G1 X167.083 Y83.015 E7.13953
G1 X167.235 Y83.497 E7.20018
G1 X167.312 Y84.037 E7.26563
G1 X167.644 Y89.912 E7.97176
G1 X167.915 Y92.6 E8.29595
G1 X168.549 Y97.184 E8.85127
G1 X168.568 Y97.882 E8.93506
G1 X168.39 Y100.068 E9.19825
G1 X168.157 Y105.565 E9.85848
G1 X168.235 Y111.053 E10.51711
G1 X168.573 Y116.029 E11.1156
G1 X168.58 Y116.247 E11.14177
G1 X168.579 Y118.59 E11.42293
G1 X168.555 Y118.984 E11.4703
G1 X167.934 Y123.979 E12.07432
G1 X167.549 Y129.432 E12.73031
G1 X167.472 Y134.919 E13.38881
G1 X167.705 Y140.384 E14.04521
G1 X168.247 Y145.828 E14.70172
G1 X169.097 Y151.24 E15.35912
G1 X170.08 Y155.923 E15.93332
G1 X170.148 Y156.567 E16.01103
G1 X170.156 Y158.474 E16.23988
G1 X170.118 Y158.978 E16.30053
G1 X170.001 Y159.47 E16.36121
G1 X169.809 Y159.937 E16.42181
G1 X169.494 Y160.436 E16.49262
G1 X168.397 Y161.864 E16.7087
G1 X168.058 Y162.24 E16.76946
G1 X167.58 Y162.613 E16.84221
G1 X164.585 Y164.523 E17.26848
G1 X160.095 Y167.68 E17.92713
G1 X155.784 Y171.093 E18.58695
G1 X153.755 Y172.843 E18.90848
G1 X149.748 Y176.604 E19.56795
G1 X149.353 Y176.92 E19.62865
G1 X148.914 Y177.17 E19.68927
G1 X148.44 Y177.347 E19.74999
G1 X148.123 Y177.421 E19.78905
G1 X141.962 Y178.526 E20.54017
G1 X141.611 Y178.569 E20.5826
G1 X139.232 Y178.728 E20.86872
G1 X133.742 Y179.32 E21.53134
G1 X128.285 Y180.221 E22.19504
G1 X127.768 Y180.264 E22.2573
G1 X91.26 Y180.31 E26.63826
G1 X90.756 Y180.271 E26.69892
G1 X90.264 Y180.152 E26.75967
G1 X89.798 Y179.958 E26.82024
G1 X89.367 Y179.693 E26.88095
G1 X89.075 Y179.451 E26.92646
G1 X84.9 Y175.561 E27.61123
G1 X80.683 Y172.061 E28.26886
G1 X76.28 Y168.809 E28.92571
G1 X71.694 Y165.807 E29.58345
G1 X66.943 Y163.068 E30.24153
G1 X63.613 Y161.345 E30.69145
G1 X63.183 Y161.078 E30.75219
G1 X62.801 Y160.747 E30.81284
G1 X62.476 Y160.359 E30.87358
G1 X62.217 Y159.926 E30.93412
G1 X62.028 Y159.456 E30.99491
G1 X61.916 Y158.964 E31.05546
G1 X61.883 Y158.459 E31.11619
G1 X61.93 Y157.956 E31.17682
G1 X62.056 Y157.466 E31.23753
G1 X62.257 Y157.002 E31.29821
G1 X62.618 Y156.463 E31.37605
G1 X67.127 Y151.014 E32.22478
G1 X70.351 Y146.572 E32.88342
G1 X73.303 Y141.983 E33.53819
G1 X76 Y137.218 E34.19523
G1 X78.426 Y132.3 E34.85329
G1 X80.562 Y127.273 E35.50873
G1 X82.422 Y122.099 E36.16851
G1 X83.314 Y119.234 E36.52859
G1 X83.502 Y118.765 E36.58922
G1 X83.761 Y118.331 E36.64987
G1 X84.139 Y117.891 E36.71948
G1 X89.503 Y112.679 E37.61697
G1 X93.166 Y108.628 E38.27235
G1 X96.6 Y104.366 E38.92915
G1 X99.801 Y99.902 E39.58832
G1 X102.721 Y95.299 E40.24244
G1 X105.4 Y90.496 E40.9024
G1 X107.782 Y85.591 E41.55673
G1 X109.895 Y80.531 E42.21475
G1 X111.717 Y75.364 E42.87221
G1 X113.25 Y70.085 E43.53186
G1 X114.026 Y66.895 E43.92582
G1 X114.184 Y66.414 E43.98658
G1 X114.415 Y65.965 E44.04717
G10
G0 X95.483 Y115.686
G0 X94.935 Y118.879
G0 X94.935 Y119.77
G0 X94.863 Y119.756
G0 X94.962 Y119.771
;TYPE:WALL-OUTER
G11
G1 X94.831 Y120.683 E44.15773
G1 X94.976 Y120.973 E44.19664
G1 X95.03 Y121.08 E44.21102
G0 X94.831 Y121.08
G1 X94.765 Y121.08 E44.21189
G1 X94.765 Y120.683 E44.22046
G1 X94.765 Y119.744 E44.25857
G1 X94.965 Y119.744 E44.28257
G0 X94.962 Y119.771
G10
G0 X94.863 Y119.756
G0 X94.792 Y120.689
G0 X94.996 Y121.059
G0 X95.073 Y121.183
G0 X95.282 Y121.798
G0 X95.356 Y121.732
G11
G1 X95.535 Y121.852 E44.30843
G1 X95.784 Y122.018 E44.34434
G1 X95.784 Y122.309 E44.37926
G1 X95.784 Y122.31 E44.37938
G1 X95.784 Y122.725 E44.42918
G1 X95.46 Y122.465 E44.45657
G1 X95.225 Y122.277 E44.49269
G1 X95.181 Y121.975 E44.52931
G1 X95.151 Y121.762 E44.54943
G1 X95.062 Y121.145 E44.62424
G1 X95.356 Y121.732 E44.6468
G0 X95.578 Y121.921
G10
G0 X95.542 Y121.976
G0 X95.767 Y122.689
G0 X95.218 Y123.379
G0 X89.781 Y120.896
G0 X86.227 Y119.404
G0 X85.604 Y119.981
G0 X85.94 Y121.008
G0 X104.538 Y154.385
G0 X98.211 Y154.408
G0 X98.292 Y154.438
G0 X100.341 Y153.807
G0 X101.548 Y153.806
G0 X102.377 Y153.253
G0 X102.889 Y151.703
G0 X97.114 Y145.217
G0 X95.277 Y144.75
G0 X90.845 Y143.906
G0 X81.019 Y142.454
G0 X79.091 Y142.248
G0 X78.375 Y143.681
G0 X82.311 Y146.97
G0 X83.556 Y151.954
G0 X83.242 Y153.216
G0 X83.183 Y153.267
G0 X83.207 Y153.17
;TYPE:WALL-INNER
G11
G1 X83.267 Y153.185 E44.65422
G1 X83.297 Y153.245 E44.66227
G1 X83.372 Y153.394 E44.68229
G0 X83.208 Y153.325
G0 X83.172 Y153.309
G1 X83.142 Y153.247 E44.68251
G1 X83.088 Y153.14 E44.69013
G0 X83.207 Y153.17
G0 X82.543 Y152.943
;TYPE:WALL-OUTER
G1 X82.146 Y152.943 E44.73777
G1 X82.146 Y152.587 E44.78049
G1 X81.868 Y152.309 E44.82767
G1 X81.713 Y152.154 E44.85397
G1 X81.696 Y152.154 E44.85601
G1 X81.439 Y152.154 E44.88685
G1 X81.085 Y151.447 E44.98173
G1 X81.337 Y151.195 E45.0245
G0 X81.29 Y151.172
G0 X81.237 Y151.146
G1 X81.175 Y151.115 E45.03282
G1 X80.928 Y150.991 E45.06598
G1 X81.085 Y150.517 E45.1259
G1 X80.726 Y150.338 E45.17404
G1 X80.726 Y149.54 E45.2698
G1 X80.726 Y149.4 E45.2866
G1 X80.952 Y149.4 E45.31372
G1 X81.077 Y149.462 E45.32736
G1 X81.156 Y149.501 E45.33793
G1 X81.57 Y150.607 E45.47964
G1 X81.433 Y150.882 E45.51651
G1 X81.402 Y150.944 E45.52483
G1 X81.495 Y151.099 E45.52649
G1 X81.941 Y151.841 E45.63037
G1 X81.949 Y151.855 E45.63231
G1 X82.118 Y151.995 E45.65807
G1 X82.957 Y152.695 E45.78919
G1 X83.543 Y152.842 E45.86169
G1 X83.872 Y153.501 E45.95007
G1 X84.305 Y153.501 E46.00203
G1 X84.394 Y153.942 E46.05602
G1 X83.972 Y154.047 E46.1082
G1 X83.88 Y154.047 E46.11924
G1 X82.88 Y153.619 E46.24977
G1 X82.543 Y152.943 E46.34041
G10
G0 X83.165 Y153.202
G0 X83.343 Y153.367
G0 X82.841 Y154.542
G0 X83.496 Y157.618
G0 X83.542 Y158.921
G0 X81.569 Y159.051
G0 X81.577 Y158.952
;TYPE:WALL-INNER
G11
G1 X82.302 Y158.927 E46.42747
G1 X85.96 Y158.795 E46.86671
G1 X86.369 Y158.931 E46.91843
G1 X86.896 Y159.106 E46.98507
G1 X89.749 Y159.106 E47.32743
G1 X90.358 Y159.106 E47.40051
G1 X90.388 Y159.082 E47.40512
G1 X91.537 Y158.163 E47.58168
G1 X91.537 Y158.118 E47.58708
G1 X93.529 Y157.976 E47.82672
G1 X93.967 Y157.098 E47.94447
G1 X95.173 Y157.231 E48.09006
G1 X96.665 Y156.337 E48.29878
G1 X96.929 Y156.179 E48.33571
G1 X96.677 Y156.003 E48.35709
G1 X94.978 Y154.813 E48.60601
G1 X94.834 Y154.713 E48.62704
G1 X94.753 Y154.657 E48.63886
G1 X94.643 Y154.579 E48.65504
G1 X93.923 Y153.823 E48.78032
G1 X92.131 Y151.942 E49.09208
G1 X94.189 Y153.526 E49.24835
G1 X94.19 Y153.527 E49.24852
G1 X94.676 Y153.901 E49.32211
G1 X94.885 Y153.901 E49.34719
G1 X94.997 Y154.349 E49.4026
G1 X95.021 Y154.445 E49.41345
G1 X95.193 Y154.479 E49.43258
G1 X96.092 Y154.66 E49.54262
G1 X97.862 Y155.625 E49.78454
G1 X99.158 Y155.717 E49.94045
G1 X99.173 Y155.719 E49.94227
G1 X99.156 Y155.744 E49.94362
G1 X99.837 Y156.425 E50.05919
G1 X102.239 Y156.425 E50.34743
G1 X103.094 Y158.135 E50.57685
G1 X103.209 Y158.365 E50.6077
G1 X103.403 Y158.196 E50.62639
G1 X105.26 Y156.571 E50.9225
G1 X105.26 Y155.442 E51.05798
G1 X105.978 Y154.725 E51.17974
G1 X105.847 Y154.335 E51.22911
G1 X106.381 Y153.979 E51.30613
G1 X106.351 Y153.919 E51.31418
G0 X106.395 Y153.933
G1 X106.557 Y153.988 E51.33319
G1 X107.441 Y153.102 E51.48338
G1 X107.237 Y152.696 E51.5379
G1 X107.487 Y152.28 E51.59614
G1 X108.886 Y151.136 E51.81301
G1 X109.397 Y151.305 E51.87759
G1 X110.098 Y150.604 E51.99656
G1 X110.378 Y149.345 E52.15133
G1 X110.909 Y149.168 E52.21849
G1 X110.966 Y148.367 E52.31486
G1 X110.623 Y148.197 E52.36079
G1 X110.623 Y148.186 E52.36211
G0 X110.703 Y148.106
G1 X111.096 Y147.714 E52.42872
G1 X111.096 Y146.828 E52.53504
G1 X110.623 Y146.513 E52.60324
G1 X110.623 Y146.16 E52.6456
G1 X110.745 Y145.856 E52.68491
G1 X111.133 Y145.856 E52.73147
G1 X111.727 Y144.965 E52.85997
G1 X111.727 Y142.665 E53.13597
G1 X111.977 Y142.416 E53.17831
G1 X112.491 Y140.61 E53.40364
G1 X111.885 Y140.407 E53.48033
G1 X111.885 Y140.066 E53.52125
G1 X111.128 Y139.498 E53.63482
G1 X110.043 Y137.33 E53.92574
G1 X109.303 Y136.59 E54.05132
G1 X109.156 Y135.995 E54.12487
G1 X107.468 Y133.843 E54.45307
G1 X107.468 Y133.46 E54.49903
G1 X105.885 Y132.139 E54.74645
G1 X105.396 Y132.63 E54.8296
G1 X105.358 Y132.668 E54.83605
G1 X105.066 Y132.668 E54.87109
G1 X105.028 Y132.63 E54.87754
G1 X104.62 Y132.222 E54.94678
G1 X104.516 Y132.274 E54.96073
G1 X103.998 Y131.756 E55.04864
G1 X103.998 Y131.653 E55.061
G1 X103.766 Y131.524 E55.09285
G1 X103.714 Y131.472 E55.10168
G1 X103.699 Y131.487 E55.10422
G1 X100.923 Y129.945 E55.48529
G1 X100.684 Y129.705 E55.52593
G1 X100.047 Y129.068 E55.63403
G1 X99.518 Y129.332 E55.70498
G1 X98.871 Y129.655 E55.79176
G1 X98.407 Y128.724 E55.91658
G1 X97.792 Y128.724 E55.99038
G1 X97.61 Y128.56 E56.01978
G1 X96.342 Y127.42 E56.2244
G1 X95.335 Y126.816 E56.36531
G1 X94.831 Y126.513 E56.43587
G1 X94.574 Y126.128 E56.49142
G1 X94.929 Y126.28 E56.49868
G1 X95.507 Y126.528 E56.55473
G1 X96.428 Y127.318 E56.64108
G1 X97.725 Y128.43 E56.71961
G1 X97.879 Y128.487 E56.72305
G1 X98.42 Y128.689 E56.74735
G1 X99.375 Y129.047 E56.86974
G1 X99.83 Y128.744 E56.92741
G1 X99.882 Y128.709 E56.93493
G1 X99.988 Y128.735 E56.94803
G1 X100.112 Y128.983 E56.9813
G1 X100.917 Y129.385 E57.05019
G1 X101.967 Y129.911 E57.19112
G1 X102.172 Y130.013 E57.2186
G1 X102.243 Y129.796 E57.2356
G1 X102.244 Y129.795 E57.23577
G1 X102.292 Y129.651 E57.25399
G1 X102.38 Y129.389 E57.28715
G1 X102.601 Y129.555 E57.30686
G1 X103.514 Y130.24 E57.44383
G1 X104.559 Y130.24 E57.56923
G1 X105.017 Y129.32 E57.69255
G1 X105.074 Y129.205 E57.70795
G1 X103.959 Y128.09 E57.89718
G1 X103.901 Y127.745 E57.93916
G1 X103.893 Y127.698 E57.94488
G1 X103.955 Y127.667 E57.9532
G1 X104.174 Y127.558 E57.98255
G1 X104.193 Y127.558 E57.98483
G0 X104.199 Y127.573
G1 X104.216 Y127.615 E57.98758
G0 X103.987 Y127.73
G0 X104.036 Y127.782
G0 X104.152 Y127.906
G1 X105.234 Y129.054 E58.10258
G1 X105.322 Y129.147 E58.11511
G1 X107.153 Y131.093 E58.43575
G1 X107.854 Y131.375 E58.52642
G1 X108.077 Y131.817 E58.58583
G1 X108.706 Y131.817 E58.66131
G1 X109.337 Y133.079 E58.83062
G1 X109.815 Y133.079 E58.88798
G1 X111.528 Y134.425 E59.14941
G1 X111.386 Y134.85 E59.20318
G1 X111.946 Y135.409 E59.29813
G1 X111.946 Y135.883 E59.35501
G1 X113.493 Y137.429 E59.61746
G1 X114.94 Y135.982 E59.86302
G1 X115.754 Y134.191 E60.0991
G1 X118.624 Y129.886 E60.71997
G1 X118.767 Y129.316 E60.79049
G1 X119.565 Y128.516 E60.92609
G1 X119.723 Y127.728 E61.02253
G1 X120.643 Y126.809 E61.17858
G1 X121.443 Y124.408 E61.48227
G1 X122.137 Y123.54 E61.61563
G1 X122.137 Y122.999 E61.68055
G1 X122.82 Y121.634 E61.86371
G1 X123.554 Y120.899 E61.98836
G1 X124.614 Y120.747 E62.11686
G1 X125.271 Y120.255 E62.21536
G1 X126.683 Y119.903 E62.38998
G1 X127.446 Y118.376 E62.59482
G1 X127.547 Y118.173 E62.62203
G1 X127.735 Y118.299 E62.63897
G1 X127.922 Y118.424 E62.66597
G1 X128.571 Y117.777 E62.77594
G1 X128.728 Y116.672 E62.90987
G1 X129.139 Y116.262 E62.97953
G1 X129.745 Y114.899 E63.15853
G1 X130.244 Y114.566 E63.23052
G1 X130.559 Y113.62 E63.35017
G1 X131.044 Y113.296 E63.42016
G1 X131.378 Y112.131 E63.56559
G1 X131.917 Y111.592 E63.65706
G1 X131.917 Y110.233 E63.82014
G1 X131.879 Y110.208 E63.8256
G0 X131.917 Y110.208
G1 X132.548 Y110.208 E63.90132
G1 X132.548 Y109.043 E64.04112
G1 X132.386 Y108.882 E64.06853
G1 X132.244 Y108.741 E64.09254
G1 X132.385 Y108.599 E64.10806
G1 X132.612 Y108.371 E64.14667
G1 X132.455 Y107.742 E64.22446
G1 X133.035 Y107.162 E64.32289
G1 X133.206 Y106.991 E64.35191
G1 X133.005 Y106.858 E64.36964
G1 X133.004 Y106.857 E64.36981
G1 X132.295 Y106.383 E64.47216
G1 X132.066 Y105.695 E64.55917
G1 X131.545 Y105.695 E64.62169
G1 X130.786 Y105.02 E64.74358
G1 X131.457 Y104.012 E64.88889
G1 X130.62 Y103.171 E65.03127
G1 X130.268 Y103.171 E65.07351
G1 X129.814 Y102.262 E65.19544
G1 X129.383 Y101.257 E65.32666
G1 X129.227 Y99.21 E65.57301
G1 X128.668 Y97.909 E65.74293
G1 X127.83 Y97.069 E65.88532
G1 X127.689 Y96.928 E65.90925
G1 X127.548 Y97.069 E65.9247
G1 X127.053 Y97.565 E66.00879
G1 X127.018 Y97.6 E66.01473
G1 X126.723 Y97.541 E66.05083
G1 X126.688 Y97.506 E66.05677
G1 X126.361 Y97.177 E66.11243
G1 X125.888 Y97.177 E66.16919
G1 X125.099 Y96.389 E66.303
G1 X124.636 Y96.389 E66.35856
G1 X122.262 Y93.876 E66.77341
G1 X122.112 Y92.826 E66.90069
G1 X121.483 Y91.883 E67.03671
G1 X121.353 Y90.839 E67.16296
G1 X121.822 Y90.527 E67.23055
G1 X121.822 Y89.518 E67.35163
G1 X121.742 Y89.478 E67.36237
G1 X121.66 Y89.438 E67.37331
G1 X121.618 Y89.417 E67.37895
G0 X121.74 Y89.356
G1 X121.822 Y89.315 E67.38369
G1 X121.822 Y89.296 E67.38597
G1 X121.822 Y89.106 E67.40877
G0 X121.861 Y89.141
G0 X121.925 Y89.198
G0 X122.026 Y89.287
G0 X122.036 Y89.296
G1 X123.051 Y88.277 E67.58136
G1 X123.199 Y88.128 E67.60656
G1 X123.042 Y87.988 E67.62264
G1 X121.347 Y86.482 E67.89473
G1 X118.435 Y82.651 E68.47218
G1 X117.425 Y80.198 E68.79052
G1 X117.591 Y79.203 E68.91157
G1 X117.164 Y78.49 E69.0113
G1 X117.563 Y78.223 E69.06891
G1 X117.563 Y78.029 E69.09219
G1 X117.661 Y78.029 E69.10395
G0 X117.709 Y78.077
G1 X117.97 Y78.338 E69.14824
G1 X118.128 Y79.601 E69.30098
G1 X118.729 Y80.201 E69.40289
G1 X118.729 Y80.585 E69.44897
G1 X119.509 Y81.95 E69.63763
G1 X119.894 Y82.207 E69.69317
G1 X120.033 Y82.901 E69.77811
G1 X122.128 Y85.416 E70.1709
G1 X122.169 Y85.375 E70.17786
G1 X122.199 Y85.345 E70.18295
G0 X122.213 Y85.381
G1 X122.239 Y85.443 E70.18641
G1 X123.359 Y85.443 E70.32081
G1 X123.665 Y84.702 E70.41702
G1 X122.798 Y83.834 E70.56424
G1 X122.545 Y82.95 E70.67457
G1 X122.295 Y82.701 E70.71692
G1 X122.295 Y80.906 E70.93232
G1 X121.236 Y80.15 E71.08846
G1 X121.052 Y80.018 E71.11563
G1 X120.929 Y79.792 E71.14651
G1 X120.848 Y79.643 E71.16686
G1 X120.827 Y79.606 E71.17196
G0 X120.915 Y79.606
G0 X120.981 Y79.764
G0 X121.052 Y79.764
G1 X121.279 Y79.764 E71.19448
G1 X122.097 Y79.764 E71.29264
G1 X122.329 Y79.203 E71.36549
G1 X122.964 Y78.884 E71.45077
G1 X122.602 Y75.261 E71.88769
G1 X122.137 Y73.712 E72.08177
G1 X122.137 Y72.945 E72.17381
G1 X122.453 Y72.63 E72.22735
G1 X122.453 Y70.397 E72.49531
G1 X122.137 Y70.082 E72.54885
G1 X122.137 Y69.211 E72.65337
G1 X122.78 Y68.728 E72.74988
G1 X122.951 Y68.6 E72.77551
G1 X122.771 Y68.285 E72.81904
G1 X122.725 Y68.204 E72.83022
G0 X122.825 Y68.254
G0 X122.988 Y68.58
G1 X123.084 Y68.771 E72.84706
G1 X123.32 Y69.242 E72.91028
G1 X123.469 Y69.168 E72.93024
G1 X123.783 Y69.484 E72.9837
G1 X124.881 Y68.935 E73.13101
G1 X125.16 Y69.353 E73.19132
G1 X126.388 Y69.353 E73.33868
G1 X127.334 Y68.249 E73.51315
G1 X129.667 Y68.249 E73.79311
G1 X130.97 Y68.575 E73.95428
G1 X131.817 Y68.455 E74.05694
G1 X132.1 Y68.88 E74.11821
G1 X132.626 Y68.88 E74.18133
G1 X134.818 Y71.347 E74.57735
G1 X134.818 Y71.774 E74.62859
G1 X135.764 Y72.342 E74.761
G1 X136.379 Y73.417 E74.90962
G1 X136.869 Y73.785 E74.98315
G1 X136.869 Y74.299 E75.04483
G1 X137.472 Y74.66 E75.12917
G1 X137.338 Y74.925 E75.1648
G1 X137.227 Y75.147 E75.19459
G1 X137.468 Y75.207 E75.21277
G1 X138.131 Y75.373 E75.29478
G1 X138.131 Y75.56 E75.31722
G1 X138.92 Y76.034 E75.42767
G1 X138.92 Y76.258 E75.45455
G1 X139.902 Y77.24 E75.6212
G1 X140.166 Y77.24 E75.65288
G1 X140.571 Y77.781 E75.73398
G1 X141.09 Y77.954 E75.79963
G1 X142.132 Y78.997 E75.97655
G1 X142.364 Y79.922 E76.09099
G1 X142.934 Y79.922 E76.15939
G1 X143.437 Y80.926 E76.29414
G1 X143.065 Y81.86 E76.41478
G1 X142.987 Y82.056 E76.4401
G1 X143.187 Y82.122 E76.45616
G1 X143.652 Y82.278 E76.51502
G1 X143.652 Y83.113 E76.61522
G1 X144.125 Y83.429 E76.68348
G1 X144.125 Y83.83 E76.7316
G1 X144.626 Y84.33 E76.81654
G1 X144.37 Y84.838 E76.8848
G1 X144.225 Y85.127 E76.9236
G1 X144.548 Y85.127 E76.94586
G1 X144.549 Y85.127 E76.94598
G1 X147.351 Y85.127 E77.28222
G1 X147.534 Y85.491 E77.33111
G1 X147.66 Y85.744 E77.36503
G1 X147.38 Y85.778 E77.38504
G1 X146.614 Y85.874 E77.47768
G1 X146.407 Y86.657 E77.57487
G1 X146.605 Y86.805 E77.60453
G1 X146.857 Y86.994 E77.64233
G1 X147.082 Y87.163 E77.6761
G1 X147.179 Y87.235 E77.6906
G1 X147.219 Y87.434 E77.71495
G0 X147.1 Y87.315
G0 X147.025 Y87.24
G1 X146.674 Y87.24 E77.73393
G1 X146.517 Y86.924 E77.75143
G0 X146.407 Y86.924
G1 X145.265 Y86.924 E77.88847
G1 X144.49 Y87.699 E78.01999
G1 X144.349 Y87.84 E78.04392
G1 X144.49 Y87.981 E78.05937
G1 X145.702 Y89.192 E78.26497
G1 X145.702 Y91.511 E78.54325
G1 X146.176 Y92.142 E78.63795
G1 X146.176 Y93.051 E78.74703
G1 X146.411 Y93.207 E78.78088
G0 X146.263 Y93.266
G1 X145.833 Y93.439 E78.8365
G1 X145.89 Y94.31 E78.94124
G1 X146.721 Y94.517 E79.04401
G1 X147.123 Y95.121 E79.13108
G1 X147.208 Y95.107 E79.14141
G1 X147.32 Y95.38 E79.17682
G1 X147.895 Y95.38 E79.24582
G1 X149.027 Y95.947 E79.39775
G1 X149.697 Y95.5 E79.4944
G1 X149.804 Y95.428 E79.50988
G1 X149.804 Y95.659 E79.52294
G1 X150.47 Y96.327 E79.63613
G1 X150.75 Y96.327 E79.66973
G1 X150.75 Y97.044 E79.75577
G1 X151.066 Y97.202 E79.79817
G1 X151.066 Y97.711 E79.85925
G1 X151.718 Y98.363 E79.96989
G1 X152.07 Y98.715 E80.02963
G1 X152.092 Y98.699 E80.0329
G1 X153.97 Y97.386 E80.30787
G1 X154.25 Y97.316 E80.34251
G1 X154.628 Y97.221 E80.38928
G1 X154.717 Y97.198 E80.40031
G1 X154.888 Y96.943 E80.43715
G1 X155.039 Y96.717 E80.46977
G1 X155.428 Y96.606 E80.51831
G1 X155.822 Y96.492 E80.56753
G1 X155.475 Y96.769 E80.5812
G1 X155.099 Y96.895 E80.59403
G0 X154.91 Y96.958
G0 X154.74 Y97.213
G0 X154.658 Y97.335
G0 X154.256 Y97.335
G0 X154.088 Y97.503
G1 X153.026 Y98.566 E80.77434
G1 X153.184 Y98.724 E80.80115
G1 X152.693 Y99.214 E80.88439
G1 X152.999 Y99.955 E80.9806
G1 X153.055 Y99.955 E80.98732
G1 X153.153 Y99.955 E80.99908
G1 X153.625 Y100.428 E81.07926
G1 X154.536 Y100.428 E81.18858
G1 X154.791 Y100.428 E81.21918
G1 X154.536 Y100.683 E81.22773
G1 X154.536 Y101.117 E81.27981
G1 X154.435 Y101.197 E81.29527
G1 X153.579 Y100.484 E81.42896
G1 X153.068 Y100.058 E81.44572
G0 X153.055 Y100.047
G0 X153.045 Y100.033
G0 X152.993 Y99.96
G1 X152.539 Y99.325 E81.46966
G1 X152.162 Y98.797 E81.54752
G1 X152.061 Y98.783 E81.54953
G1 X151.568 Y98.713 E81.58574
G1 X151.114 Y98.647 E81.64079
G1 X150.931 Y98.282 E81.68979
G1 X149.876 Y98.282 E81.81639
G1 X149.389 Y99.251 E81.94653
G1 X150.315 Y100.546 E82.13757
G1 X150.495 Y101.452 E82.24841
G1 X150.82 Y101.667 E82.29517
G1 X150.983 Y101.775 E82.31864
G1 X151.002 Y101.852 E82.32815
G1 X150.864 Y101.99 E82.35157
G1 X150.592 Y102.261 E82.39765
G1 X150.592 Y103.267 E82.51837
G1 X151.751 Y103.267 E82.65745
G1 X152.037 Y103.267 E82.69177
G1 X153.304 Y102.231 E82.88817
G1 X152.153 Y103.382 E82.92768
G1 X151.951 Y103.584 E82.95255
G1 X151.115 Y104.419 E83.09434
G1 X150.974 Y104.56 E83.11827
G1 X151.115 Y104.701 E83.13372
G1 X151.891 Y105.476 E83.26533
G1 X152.193 Y107.437 E83.50342
G1 X153.289 Y109.447 E83.77815
G1 X155.042 Y110.197 E84.00695
G1 X155.187 Y109.98 E84.03827
G1 X155.333 Y109.762 E84.06975
G1 X155.504 Y109.961 E84.08871
G1 X155.905 Y110.429 E84.16267
G1 X156.148 Y110.712 E84.20743
G1 X156.188 Y110.758 E84.21474
G0 X156.145 Y110.715
G1 X155.774 Y110.756 E84.23995
G1 X153.824 Y110.972 E84.47538
G1 X153.99 Y112.128 E84.61552
G1 X154.039 Y112.477 E84.65781
G1 X154.025 Y112.477 E84.65949
G1 X153.938 Y112.608 E84.67837
G0 X153.924 Y112.594
G1 X153.675 Y112.345 E84.70879
G1 X153.408 Y112.078 E84.75411
G1 X152.294 Y110.17 E85.01923
G1 X148.9 Y107.115 E85.56721
G1 X148.286 Y107.115 E85.64089
G1 X148.105 Y106.935 E85.67152
G1 X147.884 Y106.046 E85.78144
G1 X147.833 Y105.837 E85.80726
G1 X147.629 Y105.905 E85.82358
G1 X146.087 Y106.418 E86.01859
G1 X146.256 Y106.757 E86.06405
G1 X146.278 Y106.8 E86.06984
G0 X146.172 Y106.8
G1 X145.121 Y108.113 E86.27167
G1 X145.499 Y108.87 E86.3732
G1 X147.804 Y110.997 E86.74957
G1 X148.14 Y110.997 E86.78989
G1 X148.995 Y111.691 E86.92204
G1 X149.235 Y111.886 E86.95914
G1 X148.958 Y112.024 E86.98066
G1 X148.674 Y112.166 E87.01876
G1 X147.696 Y111.758 E87.14592
G1 X143.353 Y108.754 E87.77961
G1 X143.318 Y108.771 E87.78427
G1 X142.831 Y108.29 E87.86641
G1 X141.966 Y109.149 E88.0127
G1 X142.272 Y109.892 E88.10913
G1 X142.365 Y109.892 E88.12029
G1 X142.43 Y110.05 E88.14079
G1 X142.556 Y110.05 E88.15591
G1 X142.615 Y110.149 E88.16974
G0 X142.548 Y110.182
G1 X142.548 Y110.924 E88.25878
G1 X142.659 Y110.979 E88.27364
G1 X142.588 Y111.121 E88.29269
G1 X144.036 Y112.772 E88.55622
G1 X146.848 Y114.178 E88.93349
G1 X147.768 Y115.466 E89.12343
G1 X148.779 Y115.298 E89.24641
G1 X149.052 Y115.57 E89.29265
G1 X149.473 Y115.57 E89.34317
G1 X149.946 Y116.201 E89.43781
G1 X150.333 Y116.201 E89.48425
G1 X151.661 Y117.382 E89.69751
G1 X152.434 Y117.69 E89.79736
G1 X153.592 Y118.848 E89.99388
G1 X155.541 Y121.098 E90.35109
G1 X155.78 Y121.936 E90.45566
G1 X155.822 Y122.08 E90.47366
G1 X155.728 Y122.127 E90.48627
G1 X155.592 Y121.991 E90.49692
G1 X154.851 Y122.297 E90.59312
G1 X154.851 Y123.422 E90.72812
G1 X155.167 Y123.737 E90.78166
G1 X155.167 Y127.651 E91.25134
G1 X155.145 Y127.718 E91.2598
G1 X154.43 Y127.897 E91.34825
G1 X154.094 Y130.76 E91.69417
G1 X153.526 Y131.257 E91.78474
G1 X153.146 Y131.59 E91.84537
G1 X153.196 Y131.087 E91.8778
G1 X153.37 Y129.354 E92.08681
G1 X153.37 Y125.18 E92.58769
G1 X153.685 Y124.392 E92.68952
G1 X153.685 Y123.207 E92.83172
G1 X152.65 Y120.791 E93.14713
G1 X150.612 Y118.583 E93.5077
G1 X148.494 Y117.525 E93.79181
G1 X148.128 Y117.525 E93.83573
G1 X147.614 Y117.011 E93.92295
G1 X146.232 Y116.243 E94.11268
G1 X145.656 Y115.474 E94.22798
G1 X145.341 Y115.474 E94.26578
G1 X144.867 Y114.843 E94.36048
G1 X144.322 Y114.843 E94.42588
G1 X143.022 Y113.687 E94.63464
G1 X141.092 Y112.635 E94.89841
G1 X140.059 Y112.635 E95.02237
G1 X139.143 Y113.551 E95.17782
G1 X138.925 Y114.313 E95.27293
G1 X138.909 Y114.37 E95.28003
G1 X138.597 Y114.37 E95.31747
G1 X138.548 Y114.337 E95.32456
G1 X137.392 Y113.566 E95.4913
G1 X136.269 Y114.693 E95.68222
G1 X136.213 Y114.749 E95.69173
G1 X136.436 Y114.897 E95.72384
G1 X136.502 Y114.941 E95.73214
G1 X136.64 Y115.034 E95.75211
G1 X136.238 Y115.194 E95.79757
G1 X136.238 Y115.827 E95.87353
G1 X136.223 Y115.842 E95.87608
G1 X134.901 Y116.135 E96.03857
G1 X133.507 Y116.832 E96.22559
G1 X132.096 Y118.042 E96.44865
G1 X132.331 Y119.679 E96.6471
G1 X135.495 Y122.668 E97.16941
G1 X135.818 Y122.668 E97.20817
G1 X137.397 Y124.088 E97.463
G1 X137.872 Y124.088 E97.52
G1 X140.587 Y126.502 E97.95596
G1 X141.678 Y127.125 E98.10672
G1 X143.967 Y129.415 E98.49526
G1 X143.967 Y129.77 E98.53786
G1 X144.867 Y130.489 E98.67609
G1 X145.465 Y131.835 E98.85284
G1 X146.649 Y133.464 E99.0945
G1 X146.649 Y133.951 E99.15294
G1 X147.28 Y134.74 E99.27417
G1 X147.28 Y135.144 E99.32265
G1 X148.734 Y138.053 E99.71291
G1 X149.006 Y139.141 E99.84749
G1 X148.871 Y140.215 E99.97738
G1 X148.339 Y141.548 E100.14961
G1 X147.28 Y142.254 E100.30234
G1 X147.28 Y144.401 E100.55998
G1 X147.911 Y145.031 E100.66698
G1 X147.911 Y146.075 E100.79226
G1 X147.28 Y147.495 E100.97873
G1 X147.28 Y148.684 E101.12141
G1 X147.28 Y149.316 E101.19725
G1 X147.768 Y149.479 E101.25899
G1 X147.784 Y149.93 E101.31314
G1 X147.841 Y151.435 E101.49387
G1 X147.671 Y149.935 E101.51972
G1 X147.491 Y149.665 E101.53635
G1 X147.266 Y149.327 E101.55568
G1 X146.915 Y148.801 E101.59679
G1 X146.845 Y148.696 E101.61193
G1 X145.72 Y148.32 E101.75427
G1 X145.173 Y149.231 E101.88178
G1 X144.354 Y149.231 E101.98006
G1 X143.652 Y150.636 E102.16854
G1 X143.652 Y151.032 E102.21606
G1 X143.652 Y151.063 E102.21978
G0 X143.621 Y151.032
G1 X142.752 Y151.901 E102.36725
G1 X142.512 Y153.111 E102.51528
G1 X142.85 Y153.621 E102.5887
G1 X142.688 Y156.057 E102.88166
G1 X142.93 Y156.298 E102.92265
G1 X142.705 Y156.522 E102.96075
G1 X142.705 Y160.175 E103.39911
G1 X143.021 Y160.49 E103.45265
G1 X143.021 Y161.763 E103.60541
G1 X142.074 Y162.237 E103.73249
G1 X142.074 Y162.964 E103.81973
G1 X141.816 Y163.05 E103.85236
G1 X141.565 Y163.427 E103.90671
G1 X140.787 Y163.427 E104.00007
G1 X140.441 Y162.906 E104.07512
G1 X138.763 Y163.146 E104.27853
G1 X138.286 Y163.624 E104.35957
G1 X137.087 Y163.824 E104.50544
G1 X136.837 Y165.822 E104.74707
G1 X136.905 Y165.89 E104.75861
G0 X136.891 Y165.9
G1 X136.508 Y166.155 E104.81382
G1 X136.318 Y166.63 E104.87521
G1 X135.865 Y166.517 E104.93124
G1 X135.413 Y166.969 E105.00794
G1 X134.8 Y166.766 E105.08543
G1 X134.511 Y167.34 E105.16255
G1 X133.556 Y167.721 E105.28593
G1 X133.556 Y168.133 E105.33537
G1 X132.482 Y168.401 E105.46821
G1 X132.262 Y168.841 E105.52724
G1 X132.008 Y168.79 E105.55833
G1 X129.44 Y168.79 E105.86649
G1 X128.351 Y169.336 E106.01267
G1 X128.351 Y169.657 E106.05119
G1 X128.351 Y170.077 E106.10159
G1 X128.61 Y170.206 E106.13631
G1 X128.667 Y170.235 E106.14399
G1 X128.667 Y170.281 E106.14951
G0 X128.543 Y170.343
G0 X128.314 Y170.114
G1 X128.018 Y169.817 E106.17958
G1 X127.04 Y168.838 E106.34564
G1 X127.055 Y168.824 E106.3481
G1 X125.561 Y167.829 E106.5635
G1 X125.357 Y167.693 E106.59292
G1 X125.266 Y167.921 E106.61093
G1 X124.961 Y168.681 E106.7092
G1 X124.299 Y168.516 E106.79107
G1 X124.03 Y169.321 E106.89292
G1 X123.462 Y169.7 E106.97486
G1 X122.784 Y169.564 E107.05784
G1 X121.721 Y169.83 E107.18934
G1 X121.313 Y169.421 E107.25866
G1 X120.378 Y169.421 E107.37086
G1 X119.894 Y170.388 E107.50062
G1 X119.788 Y170.601 E107.52917
G1 X119.598 Y170.459 E107.54671
G1 X119.597 Y170.458 E107.54688
G1 X118.825 Y169.878 E107.66275
G1 X118.825 Y169.772 E107.67547
G1 X117.756 Y168.703 E107.85689
G1 X116.805 Y169.021 E107.97722
G1 X116.552 Y168.684 E108.02779
G1 X116.374 Y168.744 E108.05033
G0 X116.37 Y168.706
G1 X116.274 Y167.852 E108.15345
G1 X115.161 Y166.74 E108.34225
G1 X113.849 Y166.74 E108.49969
G1 X113.633 Y167.387 E108.58154
G1 X112.728 Y167.84 E108.70299
G1 X112.482 Y167.963 E108.73599
G1 X112.676 Y168.158 E108.75565
G1 X113.354 Y168.838 E108.87088
G1 X113.025 Y169.166 E108.92662
G1 X113.253 Y171.454 E109.20254
G1 X113.274 Y171.665 E109.22799
G1 X113.484 Y171.63 E109.2442
G1 X114.415 Y171.475 E109.35746
G1 X114.699 Y172.041 E109.43345
G1 X115.137 Y172.041 E109.48601
G1 X115.742 Y172.643 E109.58842
G1 X115.784 Y172.622 E109.59406
G1 X115.994 Y172.517 E109.62223
G1 X116.047 Y172.587 E109.63277
G0 X116.047 Y172.643
G1 X116.047 Y172.939 E109.66829
G1 X116.047 Y172.974 E109.67249
G0 X115.943 Y172.939
G1 X114.869 Y174.444 E109.89436
G1 X114.482 Y175.218 E109.9982
G1 X114.365 Y176.52 E110.15507
G1 X98.213 Y176.52 E112.09331
G1 X98.188 Y176.52 E112.09631
G1 X93.525 Y176.52 E112.65587
G1 X98.188 Y176.131 E112.92964
G1 X98.21 Y176.121 E112.9325
G1 X100.54 Y175.063 E113.23958
G1 X99.95 Y173.586 E113.43044
G1 X98.659 Y172.618 E113.62407
G1 X98.611 Y172.581 E113.63134
G1 X98.515 Y172.773 E113.64508
G1 X98.458 Y172.885 E113.65733
G0 X98.365 Y172.745
G1 X98.317 Y172.674 E113.66193
G1 X98.026 Y172.726 E113.6974
G1 X97.964 Y172.576 E113.71688
G1 X97.631 Y172.576 E113.75684
G0 X97.733 Y172.423
G1 X98.534 Y171.224 E113.92987
G1 X97.877 Y171.06 E114.01113
G1 X97.589 Y170.987 E114.04678
G1 X97.955 Y170.743 E114.06969
G1 X99.243 Y170.486 E114.22729
G1 X99.053 Y169.73 E114.32083
G1 X99.015 Y169.575 E114.33999
G1 X99.1 Y169.49 E114.35441
G1 X99.259 Y169.473 E114.3736
G1 X100.432 Y169.341 E114.51525
G1 X101.255 Y168.871 E114.62898
G1 X101.261 Y168.886 E114.63092
G1 X102.61 Y168.886 E114.7928
G1 X102.829 Y167.962 E114.90675
G1 X102.785 Y167.94 E114.91265
G0 X102.829 Y167.94
G1 X103.119 Y167.94 E114.94714
G1 X103.222 Y167.309 E115.02386
G1 X104.188 Y167.309 E115.13978
G1 X104.407 Y166.385 E115.25373
G1 X104.047 Y166.205 E115.30203
G1 X104.407 Y166.205 E115.30289
G1 X104.619 Y166.205 E115.32736
G1 X105.059 Y164.886 E115.49421
G1 X103.14 Y163.607 E115.77095
G1 X102.939 Y163.581 E115.79527
G1 X102.938 Y163.58 E115.79544
G1 X102.534 Y163.531 E115.84428
G1 X102.822 Y163.243 E115.87118
G1 X103.616 Y162.45 E116.00584
G1 X102.579 Y161.412 E116.18191
G1 X102.579 Y161.076 E116.22223
G1 X100.787 Y159.484 E116.50987
G1 X100.564 Y159.484 E116.53663
G1 X100.324 Y159.123 E116.58865
G1 X99.476 Y158.784 E116.69824
G1 X98.757 Y158.064 E116.82034
G1 X97.714 Y158.064 E116.9455
G1 X97.134 Y158.934 E117.07098
G1 X97.062 Y159.042 E117.08655
G1 X97.042 Y159.072 E117.09088
G0 X97.017 Y159.011
G1 X96.742 Y159.011 E117.12388
G1 X96.742 Y158.881 E117.13801
G1 X96.742 Y158.873 E117.13897
G1 X96.742 Y158.672 E117.16309
G1 X96.731 Y158.672 E117.16441
G1 X96.531 Y158.679 E117.18002
G1 X91.625 Y158.862 E117.76915
G1 X90.879 Y159.608 E117.89575
G1 X90.308 Y159.466 E117.96635
G1 X90.271 Y159.457 E117.97072
G1 X89.749 Y159.326 E118.01661
G1 X86.896 Y159.326 E118.20491
G1 X86.34 Y159.326 E118.25682
G1 X82.303 Y159.326 E118.74126
G1 X81.577 Y159.326 E118.82555
G1 X81.299 Y159.326 E118.85891
G1 X80.679 Y159.017 E118.94203
G1 X79.877 Y158.982 E119.03837
G1 X79.706 Y158.974 E119.05891
G1 X79.706 Y158.797 E119.08015
G1 X79.706 Y158.796 E119.08027
G1 X79.706 Y158.55 E119.10979
G1 X79.947 Y158.601 E119.12787
G1 X80.731 Y158.77 E119.20637
G1 X81.577 Y158.952 E119.31021
G10
G0 X81.569 Y159.051
G0 X79.731 Y158.581
G0 X79.492 Y157.211
G0 X76.043 Y157.211
G0 X75.495 Y158.375
G0 X74.763 Y158.28
G0 X74.763 Y158.38
G11
G1 X71.021 Y158.38 E119.75925
G1 X70.468 Y158.38 E119.82561
G1 X71.021 Y158.16 E119.84799
G1 X74.763 Y158.16 E120.09496
G1 X75.534 Y158.38 E120.19117
G1 X74.763 Y158.38 E120.21596
G10
G0 X74.763 Y158.28
G0 X75.495 Y158.375
G0 X76.043 Y157.211
G0 X85.39 Y154.573
G0 X86.183 Y149.863
G0 X86.954 Y148.808
G0 X87 Y148.771
G0 X86.923 Y148.833
G11
G1 X86.799 Y148.458 E120.26336
G1 X87.055 Y148.611 E120.26549
G1 X88.247 Y149.326 E120.43229
G1 X88.542 Y149.326 E120.46769
G1 X88.953 Y149.326 E120.51701
G1 X89.137 Y149.511 E120.54832
G1 X89.387 Y149.761 E120.59075
G1 X89.84 Y150.214 E120.66762
G1 X90.63 Y148.631 E120.87992
G1 X90.692 Y148.506 E120.89667
G1 X89.982 Y147.559 E121.0387
G1 X89.973 Y147.546 E121.0406
G1 X89.864 Y147.401 E121.06237
G1 X89.992 Y147.529 E121.07326
G1 X89.993 Y147.53 E121.07343
G1 X90.832 Y148.366 E121.1796
G1 X90.931 Y148.465 E121.19294
G1 X91.162 Y148.695 E121.23206
G1 X96.789 Y148.695 E121.9073
G1 X97.008 Y148.987 E121.9511
G1 X97.161 Y149.191 E121.9817
G1 X96.804 Y149.14 E121.99379
G0 X96.804 Y149.191
G1 X96.804 Y150.772 E122.18351
G1 X97.435 Y150.93 E122.26157
G1 X97.435 Y151.226 E122.29709
G0 X97.317 Y151.167
G1 X96.749 Y150.883 E122.33374
G1 X96.599 Y150.808 E122.34796
G1 X95.495 Y150.808 E122.48044
G1 X94.927 Y150.524 E122.55665
G1 X95.082 Y149.58 E122.67144
G1 X93.773 Y149.145 E122.83697
G1 X93.068 Y149.845 E122.95619
G1 X93.15 Y150.044 E122.98202
G0 X93.003 Y149.96
G1 X92.737 Y149.808 E123.01697
G1 X91.656 Y150.168 E123.15369
G1 X91.56 Y150.861 E123.23765
G1 X91.554 Y150.91 E123.24357
G1 X91.578 Y150.926 E123.24703
G1 X92.072 Y151.256 E123.31832
G1 X92.072 Y151.431 E123.33932
G1 X91.782 Y151.576 E123.37823
G1 X91.408 Y151.183 E123.44333
G1 X91.36 Y151.171 E123.44927
G1 X90.834 Y151.041 E123.51429
G1 X90.569 Y150.643 E123.57167
G1 X89.835 Y150.223 E123.67315
G1 X89.257 Y149.892 E123.69421
G1 X88.91 Y149.824 E123.72567
G1 X88.474 Y149.737 E123.77903
G1 X88.381 Y149.683 E123.79193
G1 X88.126 Y149.535 E123.82051
G1 X86.923 Y148.833 E123.92481
G10
G0 X87 Y148.771
G0 X88.237 Y149.364
G0 X88.938 Y149.362
G0 X89.846 Y150.253
G0 X90.731 Y148.503
G0 X89.89 Y147.431
G0 X89.822 Y147.244
G0 X89.894 Y147.178
G0 X89.802 Y147.216
G11
G1 X89.034 Y146.449 E124.05506
G1 X87.69 Y146.113 E124.2213
G1 X87.081 Y145.77 E124.30517
G1 X86.634 Y145.519 E124.36669
G1 X86.286 Y145.323 E124.41462
G1 X85.83 Y145.067 E124.47737
G1 X86.429 Y145.067 E124.508
G1 X86.722 Y145.361 E124.53985
G1 X87.232 Y145.407 E124.58476
G1 X88.457 Y145.518 E124.73236
G1 X88.765 Y145.826 E124.78463
G1 X90.151 Y145.999 E124.95224
G1 X90.396 Y146.986 E125.07428
G1 X89.994 Y147.188 E125.12827
G1 X89.831 Y147.27 E125.15016
G1 X89.802 Y147.285 E125.15408
G0 X89.802 Y147.216
G10
G0 X89.894 Y147.178
G0 X89.053 Y146.415
G0 X85.868 Y145.077
G0 X85.286 Y144.778
G0 X85.29 Y144.763
G11
G1 X85.224 Y144.726 E125.16316
G1 X85.307 Y144.733 E125.16422
G1 X85.398 Y144.824 E125.17063
G0 X85.29 Y144.763
G10
G0 X86.163 Y143.806
G0 X86.952 Y143.806
G0 X89.025 Y144.303
G0 X89.655 Y144.676
G0 X90.926 Y145.416
G0 X91.006 Y145.72
G0 X90.906 Y145.72
G11
G1 X90.906 Y145.382 E125.21119
G1 X91.202 Y145.546 E125.23432
G1 X91.563 Y145.747 E125.2839
G1 X92.043 Y146.014 E125.34981
G1 X93.085 Y146.014 E125.47485
G1 X93.204 Y146.014 E125.48913
G1 X93.085 Y146.303 E125.50131
G1 X92.024 Y146.19 E125.57659
G1 X91.477 Y146.131 E125.6246
G1 X90.906 Y146.069 E125.69352
G1 X90.906 Y145.721 E125.73528
G1 X90.906 Y145.72 E125.7354
G10
G0 X91.006 Y145.72
G0 X92.033 Y146.052
G0 X93.065 Y146.269
G0 X92.444 Y147.468
G0 X92.41 Y147.455
G0 X92.485 Y147.483
G0 X100.726 Y150.587
G0 X100.801 Y150.615
G0 X100.781 Y150.608
G0 X100.78 Y151.865
G0 X101.113 Y152.113
G0 X101.014 Y152.122
G11
G1 X101 Y152.108 E125.73777
G1 X100.744 Y151.85 E125.78139
G0 X101.014 Y151.85
G1 X101.257 Y151.85 E125.80013
G1 X101.271 Y151.864 E125.80208
G1 X101.449 Y152.042 E125.83229
G1 X101.382 Y152.244 E125.85783
G1 X101.316 Y152.443 E125.88299
G1 X101.167 Y152.543 E125.90452
G1 X100.733 Y152.543 E125.9566
G1 X100.866 Y152.343 E125.95914
G1 X101.014 Y152.122 E125.99106
G10
G0 X101.113 Y152.113
G0 X101.285 Y152.419
G0 X101.285 Y153.808
G0 X99.227 Y154.455
G0 X99.137 Y155.736
G0 X99.822 Y156.461
G0 X103.202 Y158.404
G0 X106.711 Y156.612
G0 X106.711 Y156.712
G11
G1 X105.595 Y157.827 E126.18036
G1 X105.846 Y159.335 E126.36381
G1 X106.268 Y159.616 E126.42465
G1 X106.268 Y160.053 E126.47709
G1 X107.784 Y160.053 E126.65901
G1 X107.784 Y157.784 E126.93129
G1 X106.711 Y156.712 E127.1133
G0 X106.711 Y156.612
G0 X107.82 Y157.769
G0 X107.812 Y160.081
G0 X107.32 Y160.675
G0 X107.304 Y160.773
G1 X106.233 Y161.307 E127.25691
G1 X106.426 Y163.417 E127.51117
G1 X106.426 Y164.154 E127.59961
G1 X107.89 Y164.154 E127.77529
G1 X108.122 Y161.594 E128.08375
G1 X107.304 Y160.773 E128.22282
G10
G0 X107.32 Y160.675
G0 X106.199 Y161.288
G0 X102.571 Y163.518
G0 X100.982 Y163.916
G0 X100.867 Y163.967
G0 X100.966 Y163.974
G11
G1 X101.406 Y164.854 E128.34088
G1 X101.538 Y165.117 E128.3762
G1 X103.128 Y165.839 E128.58575
G1 X103.22 Y165.881 E128.59788
G1 X103.017 Y166.084 E128.60779
G1 X101.448 Y165.299 E128.73193
G1 X101.185 Y165.168 E128.75894
G1 X99.534 Y164.342 E128.98047
G1 X99.034 Y163.675 E129.0805
G1 X98.726 Y163.572 E129.11947
G1 X98.615 Y162.909 E129.20014
G1 X98.596 Y162.793 E129.21425
G1 X97.286 Y161.484 E129.43648
G1 X96.919 Y161.3 E129.48574
G1 X96.233 Y160.957 E129.57778
G1 X96.191 Y160.536 E129.62855
G1 X96.166 Y160.293 E129.65786
G1 X96.578 Y160.497 E129.69369
G1 X96.614 Y160.461 E129.6998
G1 X97.18 Y161 E129.79359
G1 X97.477 Y161.283 E129.83533
G1 X98.817 Y162.559 E130.00141
G1 X98.902 Y162.64 E130.01418
G1 X100.161 Y163.839 E130.22281
G1 X100.524 Y163.839 E130.26637
G1 X100.977 Y163.895 E130.32115
G1 X101.018 Y163.901 E130.32612
G1 X100.966 Y163.974 E130.33067
G10
G0 X100.867 Y163.967
G0 X100.982 Y163.916
G0 X102.571 Y163.518
G0 X103.656 Y162.45
G0 X103.448 Y162.338
G0 X105.841 Y159.128
G0 X105.557 Y157.815
G0 X111.532 Y151.496
G0 X111.631 Y151.502
G11
G1 X111.794 Y151.665 E130.35833
G1 X112.688 Y152.555 E130.50971
G1 X115.184 Y151.841 E130.82124
G1 X117.145 Y151.665 E131.05751
G1 X117.442 Y151.219 E131.12181
G1 X117.776 Y151.219 E131.16189
G1 X119.044 Y150.373 E131.34481
G1 X119.222 Y149.839 E131.41235
G1 X120.147 Y148.914 E131.56933
G1 X120.938 Y147.134 E131.80307
G1 X120.249 Y145.756 E131.98795
G1 X118.787 Y145.023 E132.1842
G1 X118.771 Y145.015 E132.18635
G1 X118.752 Y145.092 E132.19124
G0 X118.724 Y145.064
G1 X118.225 Y144.566 E132.27584
G1 X117.833 Y144.957 E132.34228
G1 X117.618 Y144.814 E132.37326
G1 X116.084 Y144.814 E132.55734
G1 X115.855 Y145.043 E132.59621
G1 X115.381 Y144.886 E132.65613
G1 X114.456 Y145.81 E132.81302
G1 X114.912 Y146.495 E132.91177
G1 X114.843 Y146.907 E132.96189
G1 X114.642 Y147.008 E132.98889
G1 X112.954 Y146.84 E133.19245
G1 X112.154 Y147.639 E133.32813
G1 X112.013 Y147.78 E133.35206
G1 X112.154 Y147.921 E133.36751
G1 X112.862 Y148.629 E133.48766
G1 X114.567 Y149.117 E133.70048
G1 X114.652 Y149.141 E133.71107
G1 X114.666 Y149.145 E133.71282
G1 X114.565 Y149.446 E133.72804
G1 X114.491 Y149.495 E133.73769
G1 X113.523 Y150.141 E133.87734
G1 X113.523 Y150.493 E133.91958
G1 X112.977 Y150.493 E133.9851
G1 X111.815 Y151.364 E134.15936
G1 X111.631 Y151.502 E134.17655
G0 X111.532 Y151.496
G0 X112.679 Y152.593
G0 X119.731 Y153.535
G0 X119.756 Y153.631
G1 X119.044 Y154.696 E134.33028
G1 X119.044 Y155.408 E134.41572
G1 X120.229 Y155.998 E134.57457
G1 X121.079 Y154.296 E134.80287
G1 X119.756 Y153.631 E134.98055
G0 X119.731 Y153.535
G0 X121.116 Y154.284
G0 X120.241 Y156.035
G0 X118.772 Y156.531
G0 X118.781 Y156.63
G1 X118.047 Y157.362 E135.10495
G1 X118.392 Y159.09 E135.3164
G1 X118.401 Y159.134 E135.32179
G1 X118.729 Y159.024 E135.35114
G0 X118.729 Y159.134
G1 X118.729 Y159.494 E135.39434
G1 X118.097 Y159.705 E135.47429
G1 X118.502 Y160.922 E135.62821
G1 X118.098 Y161.461 E135.70904
G1 X118.098 Y163.014 E135.8954
G1 X119.005 Y163.921 E136.04932
G1 X119.964 Y164.241 E136.17064
G1 X120.718 Y163.488 E136.29851
G1 X120.718 Y161.355 E136.55447
G1 X121.347 Y160.306 E136.70125
G1 X120.928 Y159.888 E136.77227
G1 X120.771 Y159.731 E136.79891
G1 X120.945 Y159.592 E136.81568
G1 X122.179 Y158.604 E137.00537
G1 X121.908 Y156.698 E137.23639
G1 X119.74 Y156.459 E137.49813
G1 X119.253 Y156.946 E137.58077
G1 X118.781 Y156.63 E137.64894
G0 X118.772 Y156.531
G0 X120.241 Y156.035
G0 X123.842 Y151.695
G0 X123.934 Y151.657
G1 X124.788 Y152.51 E137.79378
G1 X127.988 Y154.532 E138.24802
G1 X128.515 Y154.532 E138.31126
G1 X131.456 Y155.77 E138.69417
G1 X133.939 Y156.267 E138.99804
G1 X138.372 Y156.267 E139.53
G1 X139.733 Y156.461 E139.69497
G1 X140.543 Y155.647 E139.83277
G1 X140.684 Y155.506 E139.8567
G1 X140.542 Y155.366 E139.87212
G1 X139.924 Y154.752 E139.97666
G1 X139.295 Y154.752 E140.05214
G1 X138.869 Y154.325 E140.12452
G1 X137.77 Y154.106 E140.25899
G1 X137.547 Y154.162 E140.28658
G1 X137.428 Y153.805 E140.33174
G1 X136.577 Y153.805 E140.43386
G1 X136.483 Y153.62 E140.45876
G1 X136.418 Y153.49 E140.4762
G1 X135.79 Y153.49 E140.55156
G1 X135.68 Y153.27 E140.58108
G0 X135.79 Y153.27
G1 X136.418 Y153.27 E140.62253
G1 X136.564 Y153.27 E140.63671
G1 X137.754 Y153.27 E140.77951
G1 X137.754 Y152.72 E140.84551
G1 X137.754 Y152.719 E140.84563
G1 X137.754 Y152.492 E140.87287
G1 X137.98 Y152.522 E140.88993
G1 X139.18 Y152.684 E141.03523
G1 X139.866 Y151.654 E141.18374
G1 X139.579 Y150.796 E141.29231
G1 X137.75 Y148.6 E141.63525
G1 X137.435 Y148.6 E141.67305
G1 X136.707 Y147.727 E141.80946
G1 X135.515 Y147.386 E141.95824
G1 X134.496 Y146.707 E142.10518
G1 X133.053 Y146.707 E142.27834
G1 X131.949 Y146.076 E142.43093
G1 X128.01 Y146.076 E142.90361
G1 X127.838 Y146.763 E142.9886
G1 X126.858 Y146.886 E143.10712
G1 X125.579 Y147.653 E143.28608
G1 X125.695 Y148.113 E143.34301
G1 X125.126 Y148.964 E143.46585
G1 X125.378 Y149.635 E143.55186
G1 X125.46 Y149.855 E143.58004
G1 X125.23 Y149.901 E143.59745
G1 X124.991 Y149.949 E143.6267
G1 X124.855 Y150.493 E143.69399
G1 X123.934 Y150.493 E143.80451
G1 X123.934 Y151.657 E143.94419
G10
G0 X123.842 Y151.695
G0 X124.764 Y152.541
G0 X127.977 Y154.57
G0 X131.445 Y155.808
G0 X133.936 Y156.306
G0 X139.745 Y156.498
G0 X140.724 Y155.506
G0 X139.939 Y154.716
G0 X137.451 Y153.773
G0 X135.714 Y153.29
G0 X133.775 Y152.937
G0 X133.33 Y152.724
G0 X133.281 Y152.81
G11
G1 X133.06 Y152.683 E143.97478
G1 X133.369 Y152.655 E143.9809
G1 X133.505 Y152.746 E144.00028
G1 X133.812 Y152.951 E144.04458
G0 X133.413 Y152.885
G0 X133.281 Y152.81
G10
G0 X133.33 Y152.724
G0 X133.775 Y152.937
G0 X134.681 Y153.288
G0 X134.754 Y153.37
G0 X134.754 Y153.27
G11
G1 X134.916 Y153.27 E144.06402
G1 X134.781 Y153.405 E144.06486
G0 X134.754 Y153.432
G0 X134.729 Y153.395
G1 X134.646 Y153.27 E144.06638
G0 X134.754 Y153.27
G10
G0 X134.754 Y153.37
G0 X134.681 Y153.288
G0 X135.714 Y153.29
G0 X137.782 Y153.298
G0 X139.196 Y152.72
G0 X139.905 Y151.659
G0 X139.613 Y150.777
G0 X137.766 Y148.564
G0 X128.083 Y137.791
G0 X128.053 Y137.696
G11
G1 X129.186 Y136.564 E144.25857
G1 X129.327 Y136.423 E144.2825
G1 X129.186 Y136.282 E144.29795
G1 X127.985 Y135.081 E144.50177
G1 X126.407 Y134.767 E144.69484
G1 X126.045 Y134.403 E144.75644
G1 X124.075 Y134.403 E144.99284
G1 X124.074 Y134.403 E144.99296
G1 X123.768 Y134.403 E145.02968
G1 X123.892 Y134.683 E145.05103
G1 X124.882 Y136.909 E145.34337
G1 X126.646 Y137.496 E145.56647
G1 X126.849 Y137.496 E145.59083
G1 X128.053 Y137.696 E145.73729
G0 X128.083 Y137.791
G0 X129.367 Y136.423
G0 X126.472 Y131.758
G0 X126.488 Y131.66
G1 X133.484 Y131.66 E146.57681
G1 X134.943 Y131.074 E146.76548
G1 X135.224 Y130.962 E146.80178
G1 X135.01 Y130.748 E146.82292
G1 X134.688 Y130.428 E146.87739
G1 X134.885 Y130.231 E146.91082
G1 X134.38 Y129.216 E147.04687
G1 X130.939 Y129.044 E147.4603
G1 X127.293 Y128.093 E147.91246
G1 X122.717 Y128.093 E148.46158
G1 X122.716 Y128.093 E148.4617
G1 X122.441 Y128.093 E148.4947
G1 X122.527 Y128.355 E148.51437
G1 X122.761 Y129.059 E148.6034
G1 X122.275 Y129.708 E148.70069
G1 X122.866 Y131.186 E148.89171
G1 X125.068 Y131.186 E149.15595
G1 X126.488 Y131.66 E149.33559
G10
G0 X126.472 Y131.758
G0 X113.493 Y137.469
G0 X103.502 Y130.277
G0 X102.187 Y130.049
G0 X100.084 Y129.011
G0 X99.379 Y129.086
G0 X97.705 Y128.464
G0 X97.806 Y128.687
G0 X98.428 Y128.69
G0 X98.883 Y129.618
G0 X100.053 Y129.029
G0 X104.032 Y131.633
G0 X105.081 Y132.632
G0 X104.745 Y135.426
G0 X104.805 Y135.505
G0 X104.774 Y135.516
G11
G1 X104.72 Y135.396 E149.35138
G0 X104.849 Y135.482
G1 X104.849 Y135.686 E149.37469
G0 X104.774 Y135.516
G10
G0 X104.805 Y135.505
G0 X104.745 Y135.426
G0 X104.068 Y134.356
G0 X103.573 Y133.635
G0 X103.628 Y133.552
G11
G1 X103.78 Y133.552 E149.39293
G1 X103.95 Y133.722 E149.42178
G1 X104.084 Y134.392 E149.50377
G1 X103.715 Y133.9 E149.52579
G1 X103.571 Y133.708 E149.53272
G0 X103.517 Y133.635
G1 X103.418 Y133.503 E149.55252
G1 X103.385 Y133.459 E149.55912
G1 X103.285 Y133.326 E149.57909
G1 X103.253 Y133.283 E149.58552
G1 X103.239 Y133.265 E149.58826
G1 X103.244 Y133.228 E149.59274
G1 X103.245 Y133.216 E149.59418
G1 X103.261 Y133.108 E149.60729
G0 X103.315 Y133.237
G0 X103.404 Y133.237
G0 X103.469 Y133.395
G0 X103.563 Y133.395
G0 X103.628 Y133.552
G10
G0 X103.573 Y133.635
G0 X104.068 Y134.356
G0 X105.269 Y136.773
G0 X105.477 Y137.358
G0 X105.565 Y137.313
G11
G1 X106.416 Y138.919 E149.82539
G1 X105.26 Y137.475 E149.92272
G1 X105.26 Y136.735 E150.01152
G1 X105.565 Y137.313 E150.04377
G10
G0 X105.477 Y137.358
G0 X105.269 Y136.773
G0 X106.413 Y136.227
G0 X108.635 Y139.831
G0 X108.63 Y141.452
G0 X107.595 Y142.278
G0 X106.802 Y142.295
G0 X85.94 Y121.008
G0 X85.604 Y119.981
G0 X86.227 Y119.404
G0 X89.781 Y120.896
G0 X102.636 Y127.823
G0 X103.729 Y127.038
G11
G1 X103.517 Y126.896 E150.07439
G0 X103.745 Y127.013
G1 X103.745 Y127.049 E150.07772
G0 X103.729 Y127.038
G10
G0 X103.703 Y127.039
G0 X103.411 Y126.802
G0 X103.395 Y125.632
G0 X104.063 Y125.274
G0 X105.371 Y126.095
G0 X105.275 Y126.12
G11
G1 X104.062 Y125.313 E150.25255
G1 X103.429 Y125.652 E150.33872
G1 X103.429 Y126.117 E150.39452
G1 X103.429 Y126.584 E150.45056
G1 X103.429 Y126.796 E150.476
G1 X103.429 Y126.837 E150.48092
G0 X103.367 Y126.796
G0 X103.367 Y126.584
G1 X103.069 Y126.225 E150.51462
G1 X102.691 Y125.771 E150.58552
G1 X102.807 Y125.539 E150.61664
G1 X102.325 Y124.575 E150.74598
G1 X100.965 Y122.978 E150.99769
G1 X100.832 Y122.822 E151.02229
G1 X99.726 Y121.524 E151.22693
G1 X100.871 Y122.784 E151.43123
G1 X100.872 Y122.785 E151.4314
G1 X101.011 Y122.938 E151.44569
G1 X101.158 Y122.791 E151.4616
G1 X101.979 Y121.971 E151.60084
G1 X102.834 Y122.826 E151.74594
G1 X103.356 Y122.826 E151.80858
G1 X103.987 Y123.299 E151.90321
G1 X104.488 Y123.299 E151.96333
G1 X105.658 Y124.031 E152.12894
G1 X107.267 Y124.616 E152.33439
G1 X107.688 Y125.247 E152.42542
G1 X107.688 Y125.788 E152.49034
G1 X108.105 Y126.205 E152.5611
G1 X108.231 Y126.331 E152.58249
G1 X108.454 Y126.554 E152.62033
G1 X108.482 Y126.561 E152.62379
G1 X108.475 Y126.624 E152.6314
G0 X108.453 Y126.611
G0 X108.429 Y126.597
G0 X108.14 Y126.423
G1 X107.985 Y126.51 E152.64695
G1 X107.53 Y126.765 E152.70954
G1 X107.53 Y127.838 E152.8383
G1 X107.917 Y128.224 E152.9039
G1 X107.982 Y128.289 E152.91493
G1 X108.082 Y128.314 E152.9273
G1 X108.116 Y128.323 E152.93152
G0 X108.103 Y128.349
G1 X108.046 Y128.461 E152.94019
G0 X108.079 Y128.469
G1 X108.718 Y128.629 E153.01924
G1 X109.136 Y128.735 E153.07099
G1 X109.206 Y128.874 E153.08966
G1 X109.306 Y129.073 E153.11639
G1 X109.604 Y129.127 E153.15273
G1 X110.287 Y129.251 E153.23603
G1 X111.173 Y129.412 E153.34409
G1 X111.293 Y129.517 E153.36323
G1 X111.521 Y129.716 E153.39954
G1 X111.659 Y129.837 E153.42157
G1 X111.749 Y129.916 E153.43594
G1 X111.77 Y129.934 E153.43926
G0 X111.654 Y130.027
G1 X111.46 Y130.066 E153.44044
G1 X111.371 Y129.888 E153.44489
G1 X111.073 Y129.838 E153.47365
G1 X110.265 Y129.703 E153.57196
G1 X110.147 Y129.614 E153.58969
G1 X109.592 Y129.198 E153.63969
G0 X109.306 Y129.198
G1 X109.083 Y129.198 E153.65863
G1 X108.919 Y129.198 E153.67831
G1 X108.508 Y128.963 E153.73512
G1 X107.936 Y128.636 E153.79775
G1 X107.816 Y128.567 E153.80905
G1 X107.723 Y128.567 E153.82021
G1 X107.384 Y128.567 E153.86089
G1 X105.584 Y127.217 E154.13089
G1 X105.684 Y126.975 E154.16231
G1 X105.253 Y126.544 E154.23546
G1 X105.192 Y126.287 E154.26715
G1 X105.275 Y126.12 E154.28953
G10
G0 X105.371 Y126.095
G0 X104.477 Y123.337
G0 X105.307 Y121.75
G0 X104.788 Y121.454
G0 X104.762 Y121.482
G11
G1 X104.617 Y121.406 E154.30918
G1 X104.802 Y121.406 E154.31325
G1 X105.655 Y121.95 E154.43466
G1 X104.762 Y121.482 E154.43974
G10
G0 X104.788 Y121.454
G0 X104.655 Y121.415
G0 X103.75 Y120.947
G0 X103.188 Y120.552
G0 X103.174 Y120.65
G11
G1 X102.738 Y120.737 E154.49309
G1 X103 Y120.475 E154.49897
G1 X103.107 Y120.368 E154.51102
G1 X103.284 Y120.525 E154.53941
G1 X103.782 Y120.969 E154.61948
G1 X103.174 Y120.65 E154.63795
G10
G0 X103.188 Y120.552
G0 X102.773 Y120.719
G0 X102.483 Y120.769
G0 X101.84 Y120.846
G0 X101.823 Y120.919
G11
G1 X101.79 Y121.029 E154.65173
G0 X101.79 Y120.919
G1 X101.79 Y120.524 E154.69894
G1 X101.622 Y120.384 E154.72518
G1 X101.004 Y119.87 E154.82164
G1 X100.759 Y119.666 E154.85989
G1 X100.712 Y119.524 E154.87784
G0 X100.783 Y119.538
G1 X101.209 Y119.623 E154.90812
G1 X101.779 Y120.194 E154.97718
G1 X101.92 Y120.265 E154.98551
G1 X102.099 Y120.355 E155.00653
G1 X102.521 Y120.78 E155.0784
G1 X101.867 Y120.91 E155.14863
G0 X101.823 Y120.919
G10
G0 X101.84 Y120.846
G0 X101.826 Y120.508
G0 X100.742 Y119.55
G0 X100.965 Y118.286
G0 X96.159 Y115.31
G0 X95.483 Y115.686
G0 X95.481 Y116.821
G0 X96.318 Y118.825
G0 X97.531 Y120.892
G0 X96.637 Y123.668
G0 X95.089 Y124.966
G0 X94.184 Y125.87
G0 X94.024 Y125.829
G0 X94.095 Y125.76
G11
G1 X94.22 Y125.885 E155.16984
G1 X93.971 Y125.885 E155.17633
G1 X93.444 Y125.502 E155.25451
G1 X92.728 Y124.98 E155.36084
G1 X93.609 Y125.274 E155.40244
G1 X94.095 Y125.76 E155.44221
G10
G0 X94.024 Y125.829
G0 X92.763 Y124.998
G0 X92.462 Y124.726
G0 X92.449 Y124.744
G11
G1 X92.57 Y124.866 E155.46283
G0 X92.43 Y124.764
G1 X91.774 Y124.108 E155.57416
G1 X91.754 Y124.088 E155.57755
G0 X91.793 Y124.088
G0 X92.449 Y124.744
G10
G0 X92.462 Y124.726
G0 X94.604 Y126.153
G0 X95.486 Y126.561
G0 X97.705 Y128.464
G0 X99.379 Y129.086
G0 X100.084 Y129.011
G0 X111.348 Y134.859
G0 X111.91 Y135.898
G0 X113.493 Y137.469
G0 X114.972 Y136.004
G0 X128.606 Y117.794
G0 X131.076 Y113.319
G0 X131.953 Y111.607
G0 X132.576 Y110.236
G0 X133.245 Y106.988
G0 X132.899 Y100.803
G0 X132.996 Y100.78
G11
G1 X133.594 Y101.374 E155.6787
G1 X134.756 Y101.374 E155.81814
G1 X134.756 Y100.211 E155.9577
G1 X133.808 Y99.26 E156.11883
G1 X133.58 Y99.031 E156.15761
G1 X133.478 Y99.338 E156.17991
G1 X132.996 Y100.78 E156.36236
G10
G0 X132.899 Y100.803
G0 X133.571 Y98.993
G0 X134.134 Y99.644
G0 X145.529 Y88.964
G0 X144.309 Y87.84
G0 X145.25 Y86.888
G0 X146.538 Y86.891
G0 X147.04 Y87.204
G0 X147.2 Y87.399
G0 X147.725 Y88.294
G0 X147.752 Y88.283
G0 X147.689 Y88.358
G11
G1 X147.663 Y88.352 E156.36556
G0 X147.673 Y88.331
G1 X147.71 Y88.258 E156.36956
G1 X147.753 Y88.272 E156.37441
G0 X147.753 Y88.352
G0 X147.753 Y88.37
G0 X147.735 Y88.367
G0 X147.689 Y88.358
G10
G0 X147.752 Y88.283
G0 X147.728 Y88.339
G0 X147.476 Y89.605
G0 X157.684 Y94.768
G0 X157.79 Y96.027
G11
G1 X157.872 Y96.02 E156.38428
G0 X157.794 Y96.073
G1 X157.189 Y96.073 E156.45688
G0 X157.79 Y96.027
G10
G0 X157.78 Y96.026
G0 X158.662 Y95.75
G0 X158.758 Y95.744
G0 X158.747 Y95.758
G11
G1 X158.623 Y95.758 E156.47176
G0 X158.747 Y95.696
G1 X159.252 Y95.696 E156.53236
G1 X159.376 Y95.696 E156.54724
G0 X159.252 Y95.758
G1 X158.747 Y95.758 E156.55028
G10
G0 X158.758 Y95.744
G0 X158.662 Y95.75
G0 X158.488 Y97.479
G0 X158.489 Y97.489
G0 X158.486 Y97.493
G11
G1 X158.275 Y97.493 E156.5756
G0 X158.486 Y97.44
G1 X158.906 Y97.493 E156.6264
G0 X158.486 Y97.493
G10
G0 X158.489 Y97.489
G0 X158.867 Y97.491
G0 X160.626 Y95.737
G0 X160.627 Y95.788
G0 X160.589 Y95.696
G11
G1 X160.715 Y95.571 E156.6477
G1 X161.251 Y95.036 E156.73858
G1 X161.343 Y94.944 E156.75419
G1 X161.565 Y94.244 E156.84231
G1 X161.805 Y93.487 E156.93761
G1 X162.084 Y92.61 E157.04805
G1 X162.321 Y91.866 E157.14175
G1 X162.447 Y91.471 E157.1915
G1 X162.501 Y91.418 E157.20058
G1 X162.815 Y91.105 E157.25378
G1 X162.917 Y89.777 E157.41361
G1 X162.981 Y88.949 E157.51327
G1 X163.137 Y88.637 E157.55513
G1 X163.302 Y88.305 E157.59962
G1 X163.422 Y84.701 E158.03233
G1 X163.423 Y84.683 E158.0345
G1 X163.527 Y84.704 E158.03531
G1 X163.527 Y88.305 E158.21345
G1 X163.527 Y88.676 E158.2485
G1 X163.527 Y89.025 E158.29038
G1 X163.307 Y89.858 E158.39376
G1 X162.969 Y91.146 E158.5056
G1 X162.856 Y91.575 E158.54334
G1 X162.779 Y91.864 E158.57923
G1 X162.694 Y92.006 E158.59909
G1 X162.292 Y92.676 E158.67167
G1 X162.139 Y93.592 E158.75101
G1 X161.634 Y94.265 E158.80892
G1 X161.634 Y94.944 E158.84464
G1 X161.634 Y95.075 E158.85839
G1 X161.634 Y95.545 E158.91479
G1 X161.266 Y96.097 E158.9944
G1 X161.131 Y96.3 E159.02366
G1 X160.959 Y96.128 E159.04156
G1 X160.683 Y95.852 E159.0884
G1 X160.558 Y95.726 E159.10296
G1 X160.529 Y95.696 E159.10796
G0 X160.589 Y95.696
G10
G0 X160.627 Y95.788
G0 X160.565 Y95.711
G0 X160.068 Y94.435
G0 X162.224 Y82.936
G0 X163.112 Y82.656
G0 X164.782 Y83.675
G0 X166.12 Y97.923
G0 X166.053 Y118.73
G0 X165.095 Y121.023
G0 X163.479 Y121.549
G0 X160.468 Y113.795
G0 X160.467 Y113.288
G0 X159.636 Y112.124
G0 X158.417 Y110.162
G0 X157.785 Y108.049
G0 X156.274 Y99.51
G0 X154.981 Y99.51
G0 X154.967 Y99.504
G0 X154.878 Y99.548
G11
G1 X154.845 Y99.482 E159.11682
G1 X155.009 Y99.482 E159.12366
G1 X155.009 Y99.809 E159.15274
G0 X154.878 Y99.548
G10
G0 X154.967 Y99.504
G0 X155 Y99.771
G0 X153.707 Y101.891
G0 X153.722 Y101.89
G11
G1 X153.747 Y101.869 E159.15665
G1 X153.747 Y101.92 E159.15844
G1 X153.642 Y101.955 E159.16484
G0 X153.722 Y101.89
G10
G0 X155.008 Y102.353
G0 X157.942 Y102.57
G0 X159.229 Y102.775
G0 X159.492 Y101.907
G0 X159.584 Y101.945
G11
G1 X159.584 Y102.833 E159.2714
G1 X159.584 Y103.664 E159.37112
G1 X159.436 Y104.056 E159.42141
G1 X159.097 Y104.958 E159.53704
G1 X159.416 Y107.671 E159.86484
G1 X159.439 Y107.864 E159.88816
G1 X159.8 Y108.768 E160.00497
G1 X160.057 Y109.408 E160.08774
G1 X160.057 Y109.706 E160.1235
G1 X160.057 Y110.14 E160.17558
G1 X160.258 Y110.381 E160.21323
G1 X160.276 Y110.402 E160.21655
G0 X160.249 Y110.389
G0 X160.048 Y110.148
G1 X159.679 Y109.706 E160.25639
G1 X159.679 Y109.408 E160.29019
G1 X159.679 Y108.818 E160.33348
G1 X159.209 Y107.996 E160.38888
G1 X159.048 Y107.715 E160.42035
G1 X159.048 Y104.958 E160.59463
G1 X159.048 Y103.994 E160.6604
G1 X159.048 Y103.659 E160.7006
G1 X159.188 Y102.782 E160.80717
G1 X159.328 Y101.905 E160.89502
G1 X159.362 Y101.692 E160.92091
G1 X159.66 Y99.832 E161.14695
G1 X159.989 Y99.01 E161.2532
G1 X160.431 Y97.905 E161.39601
G1 X160.596 Y97.493 E161.44927
G1 X160.054 Y97.493 E161.51431
G1 X160.325 Y97.223 E161.53188
G1 X160.912 Y96.636 E161.63149
G1 X161.227 Y97.257 E161.71505
G1 X163.012 Y97.335 E161.92946
G1 X161.227 Y97.335 E161.95034
G1 X161.197 Y97.335 E161.9525
G1 X160.819 Y97.714 E162.01674
G1 X160.572 Y97.961 E162.03906
G1 X160.369 Y99.133 E162.13759
G1 X159.941 Y101.59 E162.43687
G1 X159.737 Y101.793 E162.47141
G1 X159.584 Y101.945 E162.49294
G10
G0 X159.492 Y101.907
G0 X159.058 Y104.954
G0 X159.401 Y107.873
G0 X160.018 Y109.415
G0 X160.02 Y110.153
G0 X160.241 Y110.324
G0 X160.247 Y110.376
G0 X161.092 Y111.961
G0 X161.78 Y112.9
G0 X161.125 Y111.976
G11
G1 X161.793 Y112.836 E162.62361
G1 X162.007 Y113.111 E162.66543
G1 X162.065 Y113.185 E162.67671
G1 X161.869 Y113.38 E162.70989
G1 X164.789 Y116.471 E163.22014
G1 X164.789 Y116.87 E163.26802
G1 X164.592 Y116.642 E163.27038
G1 X161.816 Y113.427 E163.48054
G0 X161.802 Y113.411
G1 X161.73 Y113.327 E163.49151
G0 X161.73 Y113.185
G1 X161.73 Y112.885 E163.50092
G1 X161.096 Y111.997 E163.51973
G1 X161.083 Y111.979 E163.5224
G1 X161.057 Y111.943 E163.52773
G0 X161.131 Y111.943
G0 X161.129 Y111.956
G0 X161.125 Y111.976
G10
G0 X161.78 Y112.9
G0 X161.83 Y113.38
G0 X164.776 Y116.833
G0 X164.784 Y116.914
G0 X164.492 Y118.341
G0 X164.397 Y118.315
G11
G1 X164.789 Y116.875 E163.70682
G1 X164.789 Y118.367 E163.79712
G1 X164.789 Y118.368 E163.79724
G1 X164.789 Y118.477 E163.81032
G1 X164.717 Y118.649 E163.83269
G1 X164.582 Y118.973 E163.87481
G1 X164.363 Y119.498 E163.94307
G1 X164.344 Y119.544 E163.94904
G0 X164.254 Y119.454
G1 X164.254 Y118.837 E163.9945
G1 X164.346 Y118.499 E164.03417
G1 X164.397 Y118.315 E164.05709
G10
G0 X164.492 Y118.341
G0 X164.784 Y116.914
G0 X163.398 Y117.185
G0 X160.484 Y114.738
G0 X160.423 Y114.686
G0 X121.1 Y81.649
G0 X121.067 Y81.805
G0 X120.985 Y81.553
G0 X120.497 Y81.143
G0 X120.436 Y81.091
G0 X120.445 Y81.098
G0 X120.781 Y79.516
G0 X120.756 Y79.462
G0 X120.798 Y79.552
G11
G1 X120.554 Y79.104 E164.1183
G1 X120.462 Y78.937 E164.14118
G0 X120.603 Y79.077
G1 X120.798 Y79.552 E164.14564
G10
G0 X120.756 Y79.462
G0 X120.485 Y78.969
G0 X120.259 Y78.642
G0 X120.296 Y78.633
G11
G1 X120.257 Y78.561 E164.15547
G0 X120.306 Y78.627
G1 X120.306 Y78.652 E164.15816
G0 X120.296 Y78.633
G10
G0 X120.259 Y78.642
G0 X119.953 Y78.165
G0 X119.552 Y77.789
G0 X119.633 Y77.729
G11
G1 X119.981 Y78.193 E164.22776
G1 X119.498 Y77.831 E164.24471
G1 X119.191 Y77.141 E164.33534
G1 X119.633 Y77.729 E164.35347
G10
G0 X119.552 Y77.789
G0 X119.211 Y77.175
G0 X118.681 Y76.26
G0 X118.546 Y76.066
G0 X118.643 Y76.043
G11
G1 X118.703 Y76.292 E164.3842
G1 X118.414 Y76.098 E164.40211
G1 X117.81 Y74.283 E164.63165
G1 X117.711 Y73.987 E164.66911
G1 X117.688 Y73.763 E164.69613
G1 X117.584 Y72.71 E164.8231
G1 X117.552 Y72.399 E164.86062
G1 X117.838 Y72.685 E164.87442
G1 X118.085 Y73.714 E164.97845
G1 X118.198 Y74.183 E165.03634
G1 X118.643 Y76.043 E165.21048
G10
G0 X118.546 Y76.066
G0 X117.569 Y72.435
G0 X117.433 Y72.136
G0 X117.385 Y71.907
G0 X117.483 Y71.924
G11
G1 X117.441 Y72.175 E165.24101
G1 X117.247 Y71.885 E165.25515
G1 X117.247 Y70.916 E165.37143
G1 X117.247 Y70.158 E165.46239
G1 X117.437 Y69.779 E165.51326
G1 X117.551 Y69.551 E165.54385
G1 X117.638 Y68.59 E165.65965
G1 X117.668 Y68.249 E165.70072
G1 X117.699 Y68.249 E165.70444
G1 X117.967 Y68.463 E165.72886
G1 X118.048 Y68.528 E165.74133
G1 X118.027 Y68.652 E165.75642
G1 X117.87 Y69.603 E165.86095
G1 X117.829 Y69.854 E165.88856
G1 X117.642 Y70.968 E166.02411
G1 X117.483 Y71.924 E166.10907
G10
G0 X117.385 Y71.907
G0 X117.433 Y72.136
G0 X116.32 Y72.77
G0 X115.83 Y77.866
G0 X117.452 Y129.366
G0 X117.042 Y130.09
G0 X117.243 Y145.998
G0 X116.605 Y146.075
G0 X116.093 Y147.868
G0 X117.275 Y148.538
G0 X117.291 Y149.784
G0 X117.667 Y149.806
G0 X117.393 Y149.956
G0 X117.294 Y150.032
G0 X117.553 Y170.606
G0 X117.554 Y170.686
G0 X117.572 Y172.05
G0 X118.992 Y172.799
G0 X118.992 Y172.887
G0 X119.055 Y172.81
G11
G1 X119.144 Y172.881 E166.12273
G0 X119.03 Y172.909
G1 X118.964 Y172.926 E166.1243
G0 X118.976 Y172.954
G1 X119.04 Y173.099 E166.14332
G1 X119.71 Y174.605 E166.34112
G1 X119.799 Y174.806 E166.3675
G1 X119.591 Y174.875 E166.38404
G1 X119.225 Y174.998 E166.43037
G1 X119.492 Y175.933 E166.54706
G1 X119.503 Y175.971 E166.5518
G1 X119.47 Y175.938 E166.55249
G1 X118.905 Y176.171 E166.62583
G1 X117.859 Y174.747 E166.83786
G1 X117.689 Y174.515 E166.87237
G1 X117.671 Y174.407 E166.88551
G0 X117.689 Y174.407
G1 X117.977 Y174.407 E166.90883
G1 X118.194 Y174.407 E166.93487
G1 X118.194 Y173.303 E167.06735
G1 X118.267 Y173.303 E167.07611
G1 X118.768 Y172.928 E167.15121
G1 X118.895 Y172.833 E167.16548
G0 X118.992 Y172.76
G0 X119.055 Y172.81
G0 X119.523 Y173.198
;TYPE:WALL-OUTER
G1 X119.619 Y173.414 E167.19385
G1 X120.208 Y174.741 E167.36807
G1 X120.233 Y174.797 E167.37543
G1 X120.233 Y175.083 E167.40975
G1 X120.175 Y175.102 E167.41707
G1 X119.715 Y175.256 E167.47528
G1 X120.051 Y176.431 E167.62193
G1 X119.723 Y176.758 E167.67751
G1 X119.489 Y176.523 E167.71731
G1 X119.376 Y176.41 E167.73649
G1 X119.129 Y176.512 E167.76855
G1 X119.129 Y176.672 E167.78481
G1 X119.129 Y176.92 E167.81457
G1 X118.957 Y176.92 E167.83521
G1 X118.823 Y176.737 E167.86243
G1 X117.31 Y174.675 E168.16933
G1 X117.237 Y174.238 E168.2225
G1 X117.199 Y174.007 E168.25059
G1 X117.433 Y174.007 E168.26799
G1 X117.434 Y174.007 E168.26811
G1 X117.794 Y174.007 E168.31131
G1 X117.794 Y172.903 E168.44379
G1 X118.134 Y172.903 E168.48459
G1 X118.952 Y172.29 E168.60726
G1 X118.89 Y172.166 E168.62389
G0 X118.988 Y172.244
G1 X119.439 Y172.605 E168.69322
G1 X120.057 Y172.451 E168.76964
G1 X120.279 Y172.673 E168.80732
G1 X120.362 Y172.756 E168.8214
G1 X120.278 Y173.009 E168.85339
G1 X120.164 Y173.037 E168.86748
G1 X119.753 Y173.141 E168.91835
G1 X119.523 Y173.198 E168.93589
G10
G0 X119.065 Y173.4
G0 X118.992 Y172.799
G0 X119.779 Y170.563
G0 X119.007 Y169.891
G0 X118.706 Y170.289
G11
G1 X118.502 Y171.714 E169.10863
G1 X118.425 Y171.714 E169.11787
G1 X118.425 Y170.289 E169.19416
G1 X118.425 Y169.938 E169.23628
G1 X117.648 Y169.161 E169.36814
G1 X116.921 Y169.404 E169.46012
G1 X116.921 Y169.821 E169.51016
G1 X116.905 Y169.821 E169.51208
G1 X116.711 Y169.562 E169.51692
G1 X116.405 Y169.155 E169.57802
G1 X116.031 Y169.28 E169.62534
G0 X116.022 Y169.199
G1 X115.892 Y168.036 E169.76577
G1 X114.995 Y167.14 E169.91791
G1 X114.137 Y167.14 E170.02087
G1 X113.959 Y167.671 E170.08808
G1 X113.402 Y167.95 E170.16284
G1 X113.156 Y168.073 E170.19584
G1 X113.35 Y168.268 E170.21549
G1 X113.766 Y168.685 E170.28618
G1 X113.766 Y168.992 E170.32302
G1 X113.442 Y169.315 E170.37792
G1 X113.609 Y170.989 E170.57979
G1 X113.63 Y171.2 E170.60524
G1 X113.84 Y171.165 E170.62145
G1 X114.641 Y171.031 E170.7189
G1 X114.946 Y171.641 E170.80074
G1 X115.302 Y171.641 E170.84346
G1 X115.82 Y172.157 E170.9312
G1 X116.114 Y172.01 E170.97065
G1 X116.447 Y172.454 E171.03725
G1 X116.447 Y173.412 E171.15221
G1 X116.447 Y173.529 E171.16625
G1 X116.097 Y173.412 E171.19632
G1 X115.213 Y174.651 E171.37896
G1 X114.874 Y175.329 E171.46993
G1 X114.73 Y176.92 E171.66163
G1 X91.808 Y176.92 E174.41227
G1 X91.582 Y176.92 E174.43939
G1 X91.508 Y176.92 E174.44827
G1 X91.582 Y176.627 E174.4611
G1 X91.784 Y176.526 E174.48466
G1 X92.413 Y176.211 E174.56908
G1 X98.086 Y175.738 E175.2522
G1 X100.027 Y174.857 E175.50799
G1 X99.62 Y173.839 E175.63955
G1 X98.912 Y173.307 E175.74583
G1 X98.753 Y173.188 E175.76966
G1 X98.664 Y173.365 E175.78431
G1 X98.663 Y173.366 E175.78448
G1 X98.542 Y173.607 E175.81684
G1 X98.457 Y173.607 E175.82704
G1 X98.308 Y173.383 E175.84833
G1 X98.129 Y173.114 E175.88711
G1 X97.779 Y173.177 E175.92978
G1 X97.696 Y172.976 E175.95588
G1 X97.155 Y172.976 E176.0208
G1 X97.136 Y172.976 E176.02308
G1 X97.042 Y172.929 E176.03569
G1 X97.155 Y172.703 E176.05773
G1 X97.023 Y172.439 E176.09315
G1 X96.939 Y172.272 E176.11558
G1 X97.353 Y172.272 E176.14068
G1 X97.729 Y171.709 E176.22192
G1 X97.886 Y171.474 E176.25584
G1 X97.612 Y171.405 E176.27589
G1 X97.107 Y171.278 E176.33837
G1 X97.096 Y171.276 E176.33971
G1 X97.001 Y170.898 E176.38649
G1 X97.01 Y170.892 E176.38778
G1 X97.798 Y170.367 E176.50141
G1 X98.548 Y170.217 E176.59319
G1 X98.549 Y170.216 E176.59336
G1 X98.753 Y170.176 E176.61831
G1 X98.703 Y169.974 E176.63424
G1 X98.572 Y169.452 E176.69883
G1 X98.916 Y169.108 E176.75721
G1 X100.306 Y168.953 E176.92504
G1 X101.43 Y168.312 E177.08031
G1 X101.452 Y168.299 E177.08338
G1 X101.529 Y168.486 E177.09832
G1 X101.561 Y168.486 E177.10216
G1 X102.294 Y168.486 E177.19012
G1 X102.367 Y168.178 E177.2281
G1 X101.782 Y167.885 E177.30662
G1 X101.561 Y168.106 E177.34403
G0 X101.517 Y168.019
G1 X101.16 Y167.307 E177.43961
G1 X101.155 Y167.298 E177.44084
G1 X100.778 Y167.298 E177.48608
G1 X100.291 Y167.298 E177.54452
G1 X99.728 Y167.016 E177.62008
G1 X99.564 Y166.852 E177.64791
G1 X99.181 Y166.469 E177.71291
G1 X99.181 Y166.457 E177.71435
G1 X99.72 Y166.51 E177.74966
G1 X100.481 Y166.586 E177.84143
G1 X100.945 Y166.957 E177.91272
G1 X101.239 Y167.192 E177.94376
G1 X101.296 Y167.238 E177.94378
G1 X101.714 Y167.155 E177.99492
G1 X101.923 Y167.113 E178.0205
G0 X101.743 Y167.294
G1 X101.846 Y167.54 E178.0525
G1 X102.779 Y167.54 E178.16446
G1 X102.834 Y167.204 E178.20532
G1 X102.322 Y167.033 E178.27009
G1 X102.781 Y166.942 E178.28723
G1 X102.964 Y166.905 E178.30964
G1 X103.094 Y166.879 E178.32555
G1 X103.106 Y166.909 E178.32942
G1 X103.18 Y166.909 E178.3383
G1 X103.695 Y166.909 E178.4001
G1 X103.872 Y166.909 E178.42134
G1 X103.945 Y166.601 E178.45933
G1 X103.787 Y166.522 E178.47835
G1 X103.359 Y166.308 E178.53577
G1 X103.148 Y166.519 E178.57158
G1 X103.096 Y166.571 E178.57977
G1 X102.978 Y166.512 E178.59386
G1 X99.271 Y164.658 E179.09124
G1 X98.789 Y164.015 E179.18767
G1 X98.37 Y163.875 E179.24068
G1 X98.222 Y162.985 E179.34895
G1 X97.049 Y161.813 E179.54793
G1 X95.857 Y161.217 E179.70785
G1 X95.727 Y159.92 E179.86427
G1 X96.118 Y159.823 E179.91261
G1 X96.498 Y160.011 E179.96349
G1 X96.611 Y159.898 E179.98266
G1 X96.851 Y159.658 E180.02339
G1 X96.792 Y159.515 E180.04196
G1 X96.749 Y159.411 E180.05546
G1 X96.342 Y159.411 E180.1043
G1 X96.342 Y159.087 E180.14318
G0 X96.331 Y159.087
G1 X91.797 Y159.256 E180.68764
G1 X91.002 Y160.051 E180.82255
G1 X89.7 Y159.726 E180.98359
G1 X81.204 Y159.726 E182.00311
G1 X80.577 Y159.413 E182.0872
G1 X79.305 Y159.358 E182.23999
G1 X78.834 Y159.337 E182.29656
G1 X79.306 Y159.337 E182.29811
G1 X79.306 Y158.678 E182.37719
G1 X78.698 Y158.474 E182.45414
G1 X78.655 Y158.46 E182.45957
G1 X78.521 Y158.474 E182.47574
G1 X75.781 Y158.78 E182.80658
G1 X69.027 Y158.78 E183.61706
G1 X67.649 Y158.614 E183.78362
G1 X66.371 Y158.461 E183.93807
G1 X67.636 Y158.22 E184.01624
G1 X68.396 Y158.075 E184.10908
G1 X70.153 Y158.075 E184.31992
G1 X70.943 Y157.76 E184.42198
G1 X74.82 Y157.76 E184.88722
G1 X75.923 Y158.075 E185.02487
G1 X78.52 Y158.075 E185.33651
G1 X78.655 Y158.075 E185.35241
G1 X78.701 Y158.075 E185.35783
G1 X79.399 Y158.075 E185.44159
G1 X81.612 Y158.55 E185.7132
G1 X86.018 Y158.392 E186.24226
G1 X86.961 Y158.706 E186.36153
G1 X90.218 Y158.706 E186.75237
G1 X91.137 Y157.971 E186.89358
G1 X91.137 Y157.746 E186.92058
G1 X93.273 Y157.593 E187.17756
G1 X93.734 Y156.67 E187.30136
G1 X95.083 Y156.819 E187.46423
G1 X95.93 Y156.311 E187.58275
G1 X96.194 Y156.153 E187.61967
G1 X95.942 Y155.977 E187.64105
G1 X94.38 Y154.883 E187.86989
G1 X91.199 Y151.543 E188.42338
G1 X90.586 Y151.391 E188.49917
G1 X90.288 Y150.943 E188.56374
G1 X89.115 Y150.272 E188.7259
G1 X88.328 Y150.115 E188.8222
G1 X86.416 Y149 E189.08781
G1 X85.989 Y149 E189.13905
G1 X85.816 Y148.769 E189.17368
G0 X85.989 Y148.769
G1 X86.416 Y148.769 E189.20327
G1 X86.481 Y148.769 E189.21107
G1 X86.264 Y148.115 E189.29376
G1 X86.2 Y147.922 E189.31816
G1 X85.771 Y147.837 E189.37064
G1 X85.331 Y147.749 E189.42448
G1 X84.264 Y147.127 E189.57269
G1 X84.098 Y147.03 E189.59576
G1 X83.713 Y146.805 E189.64927
G1 X83.69 Y146.791 E189.6525
G1 X83.763 Y146.718 E189.65261
G1 X84.279 Y146.718 E189.69087
G1 X84.462 Y146.779 E189.71286
G1 X85.172 Y147.016 E189.80268
G1 X85.952 Y147.483 E189.91178
G1 X86.327 Y147.708 E189.95443
G1 X86.501 Y147.812 E189.97441
G1 X88.358 Y148.926 E190.23427
G1 X89.119 Y148.926 E190.32559
G1 X89.535 Y149.342 E190.39619
G1 X89.536 Y149.343 E190.39636
G1 X89.73 Y149.538 E190.42937
G1 X89.853 Y149.291 E190.44902
G1 X90.224 Y148.548 E190.54868
G1 X89.617 Y147.738 E190.67015
G1 X89.402 Y147.738 E190.69595
G1 X89.402 Y147.382 E190.73867
G1 X88.83 Y146.81 E190.83574
G1 X87.54 Y146.488 E190.99529
G1 X85.015 Y145.067 E191.34297
G1 X82.816 Y144.596 E191.61284
G1 X82.244 Y144.187 E191.69722
G1 X81.694 Y143.794 E191.77834
G1 X81.068 Y143.794 E191.85346
G1 X80.787 Y143.794 E191.88718
G1 X80.727 Y143.794 E191.89438
G1 X80.645 Y143.758 E191.90512
G1 X80.346 Y143.625 E191.94439
G1 X79.824 Y143.393 E192.01294
G1 X80.368 Y143.574 E192.01784
G0 X80.625 Y143.489
G1 X80.787 Y143.435 E192.03019
G1 X80.936 Y143.583 E192.03754
G0 X81.068 Y143.714
G1 X81.696 Y143.766 E192.04801
G1 X82.369 Y143.822 E192.0927
G1 X82.982 Y143.874 E192.16653
G1 X83.456 Y144.189 E192.23482
G1 X85.485 Y144.345 E192.47902
G1 X85.806 Y144.667 E192.53358
G1 X86.595 Y144.667 E192.62826
G1 X86.903 Y144.976 E192.68062
G1 X88.638 Y145.133 E192.88967
G1 X88.951 Y145.446 E192.94278
G1 X90.282 Y145.613 E193.10376
G1 X90.506 Y145.641 E193.13085
G1 X90.506 Y145.416 E193.14774
G1 X90.506 Y145.415 E193.14786
G1 X90.506 Y145.04 E193.19286
G1 X90.506 Y144.927 E193.20642
G1 X90.759 Y144.843 E193.23841
G1 X90.857 Y144.897 E193.25183
G1 X92.147 Y145.614 E193.42894
G1 X93.634 Y145.614 E193.60738
G1 X93.642 Y145.614 E193.60834
G1 X95.172 Y145.614 E193.79194
G1 X95.996 Y145.819 E193.89383
G1 X96.258 Y145.885 E193.92625
G1 X96.258 Y145.901 E193.92817
G0 X95.951 Y146.003
G1 X95.172 Y146.003 E193.99475
G1 X93.642 Y146.003 E194.1733
G1 X93.639 Y146.01 E194.1742
G1 X93.54 Y146.25 E194.20535
G1 X93.989 Y146.699 E194.28155
G1 X94.707 Y146.879 E194.37038
G1 X93.979 Y146.801 E194.38137
G1 X90.957 Y146.477 E194.74609
G1 X90.674 Y146.447 E194.78024
G1 X90.742 Y146.723 E194.80039
G1 X90.861 Y147.2 E194.85938
G1 X90.688 Y147.287 E194.88262
G1 X90.441 Y147.411 E194.91578
G1 X90.637 Y147.606 E194.9355
G1 X91.327 Y148.295 E195.05251
G1 X96.989 Y148.295 E195.73195
G1 X97.752 Y149.313 E195.88461
G1 X97.935 Y149.557 E195.92121
G1 X98.384 Y149.557 E195.97509
G1 X98.442 Y149.672 E195.99055
G1 X98.393 Y149.77 E196.0037
G0 X98.356 Y149.765
G1 X97.915 Y149.702 E196.02735
G1 X97.612 Y149.659 E196.05333
G1 X97.431 Y149.633 E196.07528
G1 X97.204 Y149.601 E196.10278
G1 X97.204 Y149.83 E196.11991
G1 X97.204 Y149.831 E196.12003
G1 X97.204 Y150.46 E196.19551
G1 X97.899 Y150.633 E196.28146
G1 X98.052 Y150.672 E196.30041
G1 X98.451 Y150.501 E196.3525
G1 X99.181 Y150.188 E196.44781
G1 X99.583 Y150.188 E196.49605
G1 X99.663 Y150.188 E196.50565
G1 X99.841 Y150.455 E196.54416
G1 X99.793 Y150.519 E196.55376
G1 X99.512 Y150.893 E196.60989
G1 X98.487 Y150.893 E196.73289
G1 X98.052 Y150.893 E196.77367
G1 X97.835 Y150.893 E196.78397
G1 X97.835 Y151.877 E196.90205
G1 X97.835 Y151.923 E196.90757
G1 X99.358 Y151.923 E197.09033
G1 X97.855 Y152.099 E197.13028
G1 X97.52 Y152.139 E197.17076
G1 X97.497 Y152.093 E197.17693
G1 X97.477 Y152.052 E197.18226
G1 X97.238 Y151.574 E197.24639
G1 X96.505 Y151.208 E197.34471
G1 X95.4 Y151.208 E197.47731
G1 X94.756 Y150.886 E197.56371
G1 X94.004 Y150.993 E197.65486
G1 X92.694 Y150.244 E197.83594
G1 X92.164 Y150.421 E197.90299
G1 X92.018 Y150.469 E197.92143
G1 X91.984 Y150.716 E197.95135
G1 X92.112 Y150.801 E197.96979
G1 X92.472 Y151.042 E198.02178
G1 X92.472 Y151.293 E198.0519
G1 X92.589 Y151.293 E198.06594
G1 X92.734 Y151.293 E198.08334
G1 X93.124 Y151.293 E198.13014
G1 X93.416 Y151.293 E198.16518
G0 X93.412 Y151.368
G0 X93.41 Y151.404
G1 X95.007 Y151.803 E198.36271
G1 X95.511 Y151.929 E198.42505
G1 X96.659 Y152.217 E198.56708
G1 X96.889 Y152.504 E198.61121
G1 X96.997 Y152.639 E198.63196
G1 X97.145 Y152.824 E198.66039
G1 X97.285 Y152.999 E198.68728
G1 X97.677 Y153.129 E198.73684
G1 X97.677 Y153.307 E198.7582
G1 X98.195 Y153.41 E198.82158
G1 X98.498 Y153.471 E198.85867
G0 X98.163 Y153.574
G1 X97.677 Y153.574 E198.88929
G1 X96.815 Y153.574 E198.99273
G1 X96.444 Y153.574 E199.03725
G1 X96.42 Y153.501 E199.04647
G0 X96.444 Y153.501
G0 X96.815 Y153.501
G1 X96.815 Y153.023 E199.10383
G1 X96.815 Y152.785 E199.12678
G1 X96.642 Y152.785 E199.14365
G1 X95.763 Y152.785 E199.24913
G1 X95.326 Y152.262 E199.33091
G1 X94.993 Y151.863 E199.36812
G1 X93.403 Y151.43 E199.38194
G0 X93.381 Y151.424
G0 X93.124 Y151.353
G1 X92.775 Y151.528 E199.40942
G1 X92.731 Y151.55 E199.41532
G1 X92.626 Y151.602 E199.42844
G1 X92.455 Y151.687 E199.45136
G1 X92.587 Y151.788 E199.4713
G1 X94.812 Y153.501 E199.80826
G1 X95.197 Y153.501 E199.85446
G1 X95.348 Y154.103 E199.92894
G1 X96.229 Y154.28 E200.03677
G1 X97.977 Y155.232 E200.27563
G1 X99.696 Y155.355 E200.48243
G1 X99.887 Y155.369 E200.50541
G1 X99.671 Y155.693 E200.53442
G1 X100.003 Y156.025 E200.59076
G1 X102.486 Y156.025 E200.88872
G1 X103.22 Y157.493 E201.08567
G1 X103.335 Y157.723 E201.11653
G1 X103.529 Y157.554 E201.13521
G1 X104.86 Y156.389 E201.34747
G1 X104.86 Y155.276 E201.48103
G1 X105.52 Y154.617 E201.59295
G1 X105.371 Y154.171 E201.64938
G1 X105.865 Y153.842 E201.72061
G1 X105.764 Y153.642 E201.74749
G1 X105.707 Y153.527 E201.76289
G1 X105.951 Y153.364 E201.79811
G1 X106.073 Y153.404 E201.81161
G1 X106.449 Y153.53 E201.8592
G1 X106.954 Y153.024 E201.94499
G1 X106.781 Y152.679 E201.9913
G1 X107.18 Y152.014 E202.08436
G1 X108.803 Y150.687 E202.33593
G1 X109.289 Y150.848 E202.39737
G1 X109.733 Y150.404 E202.47272
G1 X110.036 Y149.038 E202.64062
G1 X110.377 Y148.924 E202.68377
G1 X110.529 Y148.873 E202.70301
G1 X110.548 Y148.606 E202.73513
G1 X110.404 Y148.535 E202.75143
G1 X110.223 Y148.445 E202.77569
G1 X110.223 Y148.02 E202.82669
G1 X110.696 Y147.548 E202.90688
G1 X110.696 Y147.042 E202.9676
G1 X110.223 Y146.727 E203.03579
G1 X110.223 Y146.084 E203.11295
G1 X110.475 Y145.456 E203.19415
G1 X110.919 Y145.456 E203.24743
G1 X111.327 Y144.844 E203.3357
G1 X111.327 Y142.499 E203.6171
G1 X111.621 Y142.206 E203.66691
G1 X112.002 Y140.868 E203.83385
G1 X111.485 Y140.695 E203.89927
G1 X111.485 Y140.266 E203.95075
G1 X110.812 Y139.761 E204.05172
G1 X109.714 Y137.567 E204.34613
G1 X108.942 Y136.795 E204.47714
G1 X108.788 Y136.175 E204.5538
G1 X107.068 Y133.982 E204.88825
G1 X107.068 Y133.647 E204.92845
G1 X105.91 Y132.681 E205.10941
G1 X105.524 Y133.068 E205.175
G1 X104.9 Y133.068 E205.24988
G1 X104.541 Y132.709 E205.3108
G1 X104.437 Y132.761 E205.32476
G1 X103.714 Y132.038 E205.44745
G1 X103.598 Y132.154 E205.46714
G0 X103.598 Y132.038
G1 X103.598 Y131.888 E205.4821
G1 X100.679 Y130.267 E205.88276
G1 X99.968 Y129.555 E206.00351
G1 X99.207 Y129.934 E206.10553
G1 X98.959 Y130.058 E206.1388
G1 X99.155 Y130.254 E206.15858
G1 X99.55 Y130.648 E206.22553
G1 X99.728 Y130.826 E206.25574
G1 X99.728 Y131.017 E206.27866
G1 X99.476 Y131.017 E206.30161
G1 X99.124 Y131.017 E206.34385
G1 X98.432 Y130.239 E206.4688
G1 X98.573 Y129.955 E206.50685
G1 X98.159 Y129.124 E206.61826
G1 X97.639 Y129.124 E206.68066
G1 X96.103 Y127.743 E206.92852
G1 X94.548 Y126.81 E207.14613
G1 X94.198 Y126.285 E207.22185
G1 X93.842 Y126.285 E207.26457
G1 X92.166 Y125.066 E207.51326
G1 X91.049 Y123.949 E207.70282
G1 X90.673 Y123.798 E207.75144
G1 X90.259 Y123.632 E207.80497
G1 X90.157 Y123.53 E207.82228
G0 X90.259 Y123.53
G1 X90.779 Y123.53 E207.85553
G1 X90.801 Y123.437 E207.867
G1 X90.852 Y123.222 E207.89351
G1 X90.267 Y122.93 E207.97197
G1 X90.227 Y122.97 E207.97876
G1 X89.916 Y122.657 E208.03171
G1 X89.647 Y122.657 E208.06399
G1 X89.426 Y122.657 E208.09051
G1 X88.164 Y121.711 E208.27977
G1 X87.864 Y121.711 E208.31577
G1 X87.401 Y121.248 E208.39435
G1 X86.696 Y120.543 E208.51399
G1 X86.692 Y120.531 E208.51551
G1 X87.611 Y120.917 E208.57771
G1 X89.231 Y121.6 E208.78869
G1 X89.69 Y122.211 E208.88039
G1 X89.833 Y122.319 E208.90189
G1 X90.048 Y122.48 E208.92722
G1 X90.404 Y122.747 E208.96109
G1 X90.918 Y123.133 E208.99344
G1 X91.094 Y123.265 E209.01183
G1 X91.658 Y123.688 E209.09643
G1 X91.959 Y123.688 E209.13255
G1 X92.879 Y124.609 E209.28877
G1 X93.826 Y124.925 E209.40857
G1 X94.608 Y125.708 E209.54136
G1 X95.721 Y126.184 E209.68662
G1 X97.932 Y128.08 E210.03614
G1 X99.323 Y128.601 E210.21438
G1 X99.807 Y128.278 E210.28421
G1 X100.263 Y128.392 E210.34061
G1 X100.41 Y128.685 E210.37995
G1 X101.733 Y129.347 E210.55747
G1 X101.938 Y129.449 E210.58495
G1 X102.009 Y129.232 E210.60195
G1 X102.01 Y129.231 E210.60212
G1 X102.093 Y128.983 E210.63351
G1 X102.123 Y128.893 E210.64489
G1 X102.385 Y128.893 E210.67633
G1 X102.461 Y128.95 E210.68773
G1 X103.647 Y129.84 E210.86567
G1 X104.311 Y129.84 E210.94535
G1 X104.588 Y129.284 E211.01989
G1 X103.585 Y128.282 E211.19002
G1 X103.423 Y127.314 E211.30779
G1 X102.967 Y127.009 E211.37363
G1 X102.967 Y126.729 E211.40723
G1 X102.216 Y125.826 E211.54816
G1 X102.36 Y125.539 E211.58669
G1 X101.989 Y124.797 E211.68624
G1 X98.393 Y120.575 E212.35175
G1 X98.393 Y120.039 E212.41607
G1 X98.393 Y119.578 E212.47139
G1 X97.694 Y119.229 E212.56514
G1 X97.6 Y119.104 E212.58391
G1 X97.489 Y118.956 E212.60611
G0 X97.694 Y118.956
G0 X97.795 Y118.956
G1 X97.88 Y119.041 E212.60686
G1 X98.404 Y119.565 E212.63731
G1 X98.73 Y119.89 E212.66812
G1 X99.298 Y120.457 E212.76443
G1 X100.885 Y122.204 E213.04765
G1 X100.886 Y122.205 E213.04782
G1 X101.025 Y122.358 E213.07263
G1 X101.172 Y122.211 E213.08853
G1 X101.647 Y121.736 E213.16914
G1 X101.788 Y121.595 E213.19307
G1 X101.728 Y121.535 E213.20325
G1 X101.647 Y121.454 E213.217
G1 X101.39 Y121.198 E213.26053
G1 X101.39 Y120.712 E213.31885
G1 X100.415 Y119.901 E213.47104
G1 X100.241 Y119.377 E213.53729
G1 X99.554 Y119.206 E213.62225
G1 X98.544 Y118.268 E213.78765
G1 X97.325 Y117.136 E213.98728
G1 X97.013 Y117.136 E214.02472
G1 X96.342 Y116.465 E214.13859
G1 X96.342 Y116.433 E214.14243
G0 X96.355 Y116.441
G1 X97.141 Y116.929 E214.17468
G1 X97.366 Y117.069 E214.18264
G1 X98.779 Y117.946 E214.30224
G1 X100.642 Y119.103 E214.5654
G1 X101.407 Y119.255 E214.659
G1 X102.017 Y119.866 E214.7626
G1 X102.336 Y120.027 E214.80548
G1 X102.609 Y120.301 E214.8519
G1 X103.003 Y119.907 E214.91876
G1 X102.947 Y119.77 E214.93652
G1 X102.936 Y119.744 E214.93991
G0 X103.007 Y119.744
G0 X103.085 Y119.813
G1 X104.426 Y121.006 E215.15529
G1 X104.918 Y121.006 E215.21433
G1 X106.135 Y121.782 E215.38754
G1 X106.267 Y121.866 E215.40631
G1 X106.635 Y122.1 E215.45864
G1 X107.401 Y122.252 E215.55236
G1 X107.753 Y122.604 E215.61209
G1 X107.806 Y122.657 E215.62109
G0 X107.7 Y122.657
G1 X107.301 Y122.48 E215.64052
G1 X106.605 Y122.17 E215.67715
G1 X106.19 Y121.986 E215.69283
G1 X106.082 Y122.099 E215.70691
G1 X105.995 Y122.19 E215.72202
G1 X106.259 Y122.718 E215.79286
G1 X105.836 Y122.497 E215.81544
G1 X103.113 Y121.07 E216.18435
G1 X102.283 Y121.235 E216.2859
G1 X102.137 Y121.264 E216.30376
G1 X102.092 Y121.412 E216.32233
G1 X102.068 Y121.494 E216.33258
G1 X102.173 Y121.599 E216.3504
G1 X103 Y122.426 E216.49075
G1 X103.489 Y122.426 E216.54943
G1 X104.12 Y122.899 E216.64406
G1 X104.602 Y122.899 E216.7019
G1 X105.834 Y123.669 E216.87624
G1 X107.527 Y124.285 E217.09243
G1 X108.088 Y125.125 E217.21364
G1 X108.088 Y125.622 E217.27328
G1 X108.659 Y126.193 E217.37018
G1 X108.95 Y126.265 E217.40616
G1 X109.254 Y126.342 E217.44379
G1 X109.267 Y126.368 E217.44728
G1 X109.04 Y126.444 E217.476
G1 X108.893 Y126.493 E217.48631
G1 X108.863 Y126.745 E217.51677
G1 X108.994 Y126.827 E217.53531
G1 X109.645 Y127.234 E217.62744
G1 X110.099 Y127.518 E217.6917
G1 X110.044 Y127.683 E217.71257
G1 X109.514 Y127.608 E217.75897
G1 X109.119 Y127.551 E217.80686
G1 X109.119 Y127.476 E217.81586
G1 X108.26 Y126.961 E217.93605
G1 X108.133 Y126.885 E217.95381
G1 X107.93 Y126.999 E217.98175
G1 X107.93 Y127.147 E217.99951
G1 X107.93 Y127.672 E218.06251
G1 X108.186 Y127.928 E218.10595
G1 X108.665 Y128.047 E218.16518
G1 X108.698 Y128.056 E218.16929
G1 X108.628 Y128.195 E218.17991
G0 X108.66 Y128.203
G1 X109.412 Y128.392 E218.27296
G1 X109.574 Y128.715 E218.31632
G1 X111.354 Y129.038 E218.53341
G1 X112.214 Y129.792 E218.67065
G1 X112.215 Y129.793 E218.67082
G1 X112.393 Y129.948 E218.69915
G1 X112.208 Y130.096 E218.71664
G1 X111.828 Y130.4 E218.77504
G1 X111.238 Y130.518 E218.84724
G1 X111.104 Y130.249 E218.88331
G1 X110.104 Y130.082 E219.00497
G1 X109.459 Y129.598 E219.10174
G1 X108.814 Y129.598 E219.17914
G1 X107.71 Y128.967 E219.33173
G1 X107.251 Y128.967 E219.38681
G1 X105.312 Y127.513 E219.67764
G1 X105.23 Y127.554 E219.68864
G1 X104.885 Y127.727 E219.73496
G1 X104.646 Y127.847 E219.76705
G1 X104.829 Y128.042 E219.78628
G1 X107.384 Y130.755 E220.23348
G1 X108.143 Y131.06 E220.33164
G1 X108.323 Y131.417 E220.37962
G1 X108.953 Y131.417 E220.45522
G1 X109.584 Y132.679 E220.62454
G1 X109.954 Y132.679 E220.66894
G1 X111.997 Y134.284 E220.9807
G1 X111.844 Y134.742 E221.03865
G1 X112.346 Y135.243 E221.12375
G1 X112.346 Y135.717 E221.18063
G1 X113.493 Y136.863 E221.3752
G1 X114.606 Y135.75 E221.56408
G1 X115.404 Y133.995 E221.79543
G1 X118.253 Y129.722 E222.41172
G1 X118.406 Y129.111 E222.4873
G1 X119.197 Y128.319 E222.62162
G1 X119.355 Y127.53 E222.71818
G1 X120.293 Y126.593 E222.87728
G1 X121.085 Y124.215 E223.17805
G1 X121.737 Y123.4 E223.3033
G1 X121.737 Y122.904 E223.36282
G1 X122.491 Y121.397 E223.56503
G1 X123.365 Y120.522 E223.71344
G1 X124.456 Y120.366 E223.84569
G1 X125.096 Y119.886 E223.94169
G1 X126.407 Y119.559 E224.10383
G1 X127.123 Y118.125 E224.29617
G1 X126.996 Y117.869 E224.33046
G1 X127.381 Y117.581 E224.38815
G1 X127.872 Y117.909 E224.45901
G1 X128.194 Y117.588 E224.51357
G1 X128.351 Y116.483 E224.6475
G1 X128.804 Y116.031 E224.7243
G1 X129.427 Y114.63 E224.90829
G1 X129.908 Y114.309 E224.97768
G1 X130.223 Y113.363 E225.09733
G1 X130.7 Y113.045 E225.16612
G1 X131.022 Y111.921 E225.30643
G1 X131.517 Y111.426 E225.39043
G1 X131.517 Y110.447 E225.50791
G1 X131.044 Y110.132 E225.57611
G1 X131.044 Y109.97 E225.59555
G1 X131.185 Y109.686 E225.6336
G1 X131.313 Y109.43 E225.66794
G1 X131.433 Y109.351 E225.68518
G0 X131.433 Y109.43
G1 X131.433 Y109.808 E225.69297
G1 X132.148 Y109.808 E225.77877
G1 X132.148 Y109.209 E225.85065
G1 X131.833 Y108.895 E225.90402
G1 X131.833 Y108.587 E225.94098
G1 X132.169 Y108.249 E225.99818
G1 X132.012 Y107.619 E226.07609
G1 X132.406 Y107.225 E226.14295
G1 X132.578 Y107.053 E226.17214
G1 X132.375 Y106.918 E226.19008
G1 X131.958 Y106.64 E226.25022
G1 X131.777 Y106.095 E226.31913
G1 X131.393 Y106.095 E226.36521
G1 X130.219 Y105.051 E226.55374
G1 X130.098 Y104.944 E226.57312
G1 X130.098 Y104.76 E226.5952
G1 X130.478 Y104.76 E226.63209
G1 X130.943 Y104.062 E226.73273
G1 X130.454 Y103.571 E226.81589
G1 X130.021 Y103.571 E226.86785
G1 X129.449 Y102.427 E227.02133
G1 X128.989 Y101.355 E227.16131
G1 X128.833 Y99.307 E227.40778
G1 X128.331 Y98.137 E227.56056
G1 X127.83 Y97.635 E227.64567
G1 X127.689 Y97.494 E227.6696
G1 X127.548 Y97.635 E227.68505
G1 X127.15 Y98.034 E227.75268
G1 X126.526 Y97.909 E227.82904
G1 X126.195 Y97.577 E227.8853
G1 X125.722 Y97.577 E227.94206
G1 X124.933 Y96.789 E228.07588
G1 X124.463 Y96.789 E228.13228
G1 X121.884 Y94.059 E228.58294
G1 X121.729 Y92.972 E228.7147
G1 X121.098 Y92.027 E228.85106
G1 X120.949 Y90.828 E228.99604
G1 X120.949 Y90.628 E229.02004
G1 X121.422 Y90.313 E229.08824
G1 X121.422 Y89.766 E229.15388
G1 X121.121 Y89.616 E229.19424
G1 X121.106 Y89.609 E229.19622
G1 X121.106 Y89.226 E229.24218
G1 X121.121 Y89.219 E229.24417
G1 X121.287 Y89.135 E229.26649
G1 X121.422 Y89.068 E229.28458
G1 X121.422 Y88.82 E229.31434
G1 X121.287 Y88.753 E229.33242
G1 X121.106 Y88.662 E229.35673
G1 X121.106 Y88.403 E229.38781
G1 X121.106 Y88.072 E229.42753
G1 X120.475 Y87.442 E229.53453
G1 X120.475 Y87.409 E229.53849
G1 X120.515 Y87.409 E229.53939
G1 X121.174 Y87.995 E229.55914
G1 X121.421 Y88.214 E229.5853
G1 X122.019 Y88.746 E229.68134
G1 X122.469 Y88.295 E229.7578
G1 X122.617 Y88.146 E229.783
G1 X122.46 Y88.006 E229.79908
G1 X121.054 Y86.757 E230.02475
G1 X118.084 Y82.85 E230.61368
G1 X117.011 Y80.244 E230.95187
G1 X117.172 Y79.282 E231.06891
G1 X116.69 Y78.477 E231.18151
G1 X116.69 Y78.325 E231.19975
G1 X117.163 Y78.009 E231.26801
G1 X117.163 Y77.629 E231.31361
G1 X117.827 Y77.629 E231.39329
G1 X118.35 Y78.152 E231.48204
G1 X118.508 Y79.415 E231.63479
G1 X119.129 Y80.035 E231.74009
G1 X119.129 Y80.479 E231.79337
G1 X119.81 Y81.67 E231.958
G1 X120.253 Y81.966 E232.02194
G1 X120.405 Y82.723 E232.11459
G1 X122.147 Y84.813 E232.44108
G1 X122.155 Y84.823 E232.44262
G1 X122.222 Y84.756 E232.44826
G1 X122.251 Y84.727 E232.45129
G1 X122.285 Y84.727 E232.45537
G0 X122.299 Y84.762
G1 X122.351 Y84.885 E232.46496
G1 X122.442 Y84.885 E232.47588
G1 X122.507 Y85.043 E232.49638
G1 X123.091 Y85.043 E232.56646
G1 X123.193 Y84.796 E232.59853
G1 X122.484 Y84.086 E232.71893
G1 X122.46 Y84.11 E232.723
G0 X122.456 Y84.095
G1 X122.189 Y83.16 E232.83969
G1 X121.895 Y82.867 E232.8895
G1 X121.895 Y81.112 E233.1001
G1 X120.745 Y80.29 E233.26973
G1 X119.799 Y78.557 E233.50665
G1 X119.175 Y78.089 E233.60025
G1 X118.541 Y76.664 E233.78741
G1 X118.077 Y76.354 E233.85438
G1 X117.318 Y74.073 E234.14285
G1 X117.157 Y72.469 E234.3363
G1 X116.847 Y72.006 E234.40316
G1 X116.847 Y70.063 E234.63632
G1 X117.159 Y69.44 E234.71994
G1 X117.303 Y67.849 E234.91164
G1 X117.839 Y67.849 E234.97596
G1 X118.482 Y68.363 E235.07474
G1 X117.853 Y72.135 E235.53363
G1 X118.201 Y72.482 E235.5926
G1 X119.144 Y76.412 E236.07759
G1 X120.665 Y78.439 E236.38169
G1 X120.706 Y78.431 E236.3867
G1 X120.706 Y78.616 E236.39976
G1 X121.018 Y78.927 E236.45262
G1 X120.986 Y78.958 E236.45797
G1 X121.088 Y79.206 E236.49015
G1 X121.181 Y79.206 E236.50131
G1 X121.247 Y79.364 E236.52186
G1 X121.74 Y79.364 E236.58102
G1 X121.829 Y79.364 E236.5917
G1 X121.931 Y79.117 E236.62376
G1 X121.852 Y79.038 E236.63717
G1 X121.79 Y78.976 E236.64678
G1 X121.559 Y78.745 E236.68598
G1 X121.542 Y78.728 E236.68887
G1 X121.507 Y78.693 E236.69481
G0 X121.713 Y78.591
G1 X121.885 Y78.867 E236.72495
G1 X121.892 Y78.878 E236.72651
G1 X121.938 Y78.951 E236.73327
G1 X122.539 Y78.65 E236.81393
G1 X122.208 Y75.339 E237.21323
G1 X121.737 Y73.77 E237.40981
G1 X121.737 Y72.779 E237.52873
G1 X122.053 Y72.464 E237.58227
G1 X122.053 Y70.563 E237.81039
G1 X121.737 Y70.248 E237.86393
G1 X121.737 Y69.011 E238.01237
G1 X122.429 Y68.492 E238.11617
G1 X121.734 Y67.275 E238.28435
G1 X121.644 Y65.815 E238.45988
G1 X121.628 Y65.552 E238.4915
G1 X121.625 Y65.504 E238.49727
G1 X121.621 Y65.441 E238.50485
G1 X121.613 Y65.326 E238.51868
G0 X121.759 Y65.472
G0 X121.782 Y65.495
G0 X121.805 Y65.428
G0 X121.816 Y65.487
G0 X121.827 Y65.54
G1 X122.014 Y65.726 E238.54289
G1 X122.292 Y66.004 E238.59007
G1 X122.453 Y67.62 E238.78495
G1 X123.123 Y67.956 E238.87489
G1 X123.499 Y68.706 E238.97557
G1 X123.549 Y68.681 E238.98228
G1 X123.863 Y68.997 E239.03574
G1 X124.43 Y68.713 E239.11183
G1 X124.557 Y68.65 E239.12885
G1 X124.419 Y68.513 E239.15218
G1 X124.319 Y68.413 E239.1656
G1 X124.103 Y68.197 E239.20226
G1 X124.103 Y68.131 E239.21018
G0 X124.135 Y68.163
G1 X124.35 Y68.379 E239.23059
G1 X124.352 Y68.381 E239.23093
G1 X124.451 Y68.48 E239.24025
G0 X124.557 Y68.48
G1 X125.058 Y68.48 E239.30037
G1 X125.374 Y68.953 E239.36863
G1 X126.204 Y68.953 E239.46823
G1 X127.15 Y67.849 E239.6427
G1 X129.716 Y67.849 E239.95062
G1 X130.991 Y68.168 E240.10833
G1 X132.01 Y68.023 E240.23185
G1 X132.314 Y68.48 E240.29771
G1 X132.806 Y68.48 E240.35675
G1 X135.218 Y71.195 E240.79255
G1 X135.218 Y71.548 E240.83491
G1 X136.059 Y72.053 E240.95263
G1 X136.685 Y73.147 E241.10388
G1 X137.269 Y73.585 E241.19148
G1 X137.269 Y74.072 E241.24992
G1 X137.996 Y74.508 E241.35165
G1 X137.92 Y74.658 E241.37182
G1 X137.809 Y74.88 E241.40161
G1 X138.05 Y74.94 E241.41978
G1 X138.531 Y75.061 E241.4793
G1 X138.531 Y75.334 E241.51206
G1 X139.32 Y75.808 E241.62252
G1 X139.32 Y76.092 E241.6566
G1 X140.068 Y76.84 E241.78354
G1 X140.366 Y76.84 E241.8193
G1 X140.816 Y77.441 E241.90939
G1 X141.306 Y77.604 E241.97136
G1 X142.493 Y78.792 E242.17288
G1 X142.676 Y79.522 E242.2632
G1 X143.182 Y79.522 E242.32392
G1 X143.875 Y80.908 E242.50987
G1 X143.593 Y81.615 E242.60121
G1 X143.515 Y81.811 E242.62652
G1 X143.715 Y81.877 E242.64259
G1 X144.052 Y81.99 E242.68524
G1 X144.052 Y82.899 E242.79432
G1 X144.525 Y83.215 E242.86258
G1 X144.525 Y83.664 E242.91646
G1 X144.958 Y84.096 E242.98986
G1 X145.191 Y84.096 E243.01782
G0 X145.145 Y84.188
G1 X145.019 Y84.438 E243.05141
G1 X144.874 Y84.727 E243.09021
G1 X145.197 Y84.727 E243.11247
G1 X145.198 Y84.727 E243.11259
G1 X147.598 Y84.727 E243.40059
G1 X147.914 Y85.358 E243.48528
G1 X148.28 Y85.358 E243.5292
G0 X148.273 Y85.408
G1 X148.177 Y86.083 E243.61101
G1 X147.092 Y86.218 E243.74222
G1 X146.932 Y86.238 E243.76157
G1 X146.863 Y86.499 E243.79396
G1 X146.992 Y86.596 E243.81039
G1 X147.541 Y87.007 E243.89268
G1 X147.707 Y87.835 E243.99402
G1 X148.153 Y87.984 E244.05045
G1 X148.153 Y88.279 E244.08585
G1 X148.387 Y88.396 E244.11724
G1 X148.469 Y88.437 E244.12824
G1 X148.469 Y88.704 E244.16028
G1 X148.404 Y88.769 E244.17131
G1 X148.288 Y88.885 E244.191
G1 X147.326 Y88.692 E244.30874
G1 X147.071 Y88.641 E244.33995
G1 X147.187 Y88.408 E244.35878
G1 X147.334 Y88.115 E244.39811
G1 X146.859 Y87.64 E244.47872
G1 X146.426 Y87.64 E244.53068
G1 X146.269 Y87.324 E244.57303
G1 X145.431 Y87.324 E244.67359
G1 X145.056 Y87.699 E244.73722
G1 X144.915 Y87.84 E244.76115
G1 X145.056 Y87.981 E244.7766
G1 X146.102 Y89.026 E244.95403
G1 X146.102 Y91.377 E245.23615
G1 X146.576 Y92.008 E245.33086
G1 X146.576 Y92.837 E245.43034
G1 X146.915 Y93.063 E245.47923
G1 X147.049 Y93.152 E245.49853
G1 X147.049 Y93.382 E245.52613
G1 X146.9 Y93.442 E245.54177
G1 X146.407 Y93.64 E245.60552
G1 X146.251 Y93.702 E245.62567
G1 X146.27 Y93.993 E245.66066
G1 X146.433 Y94.033 E245.67818
G1 X146.968 Y94.167 E245.74437
G1 X147.312 Y94.684 E245.81888
G1 X147.474 Y94.657 E245.83859
G1 X147.58 Y94.639 E245.85149
G0 X147.486 Y94.732
G1 X147.588 Y94.98 E245.88367
G1 X148.153 Y94.98 E245.95147
G1 X148.153 Y95.062 E245.96131
G1 X148.998 Y95.485 E246.07471
G1 X149.665 Y95.039 E246.17099
G1 X149.58 Y93.91 E246.30686
G1 X149.576 Y93.869 E246.3118
G1 X149.555 Y93.608 E246.34322
G0 X149.607 Y93.866
G1 X149.914 Y93.885 E246.36336
G1 X150.204 Y93.013 E246.47363
G1 X150.204 Y93.885 E246.51069
G1 X150.204 Y95.494 E246.70377
G1 X150.636 Y95.927 E246.77716
G1 X151.15 Y95.927 E246.83884
G1 X151.15 Y96.797 E246.94324
G1 X151.466 Y96.955 E246.98564
G1 X151.466 Y97.545 E247.05644
G1 X152.116 Y98.195 E247.16675
G1 X153.801 Y97.016 E247.41353
G1 X154.47 Y96.848 E247.4963
G1 X154.788 Y96.372 E247.565
G1 X155.906 Y96.052 E247.70454
G1 X156.053 Y95.759 E247.74388
G1 X158.029 Y95.607 E247.9817
G1 X158.653 Y95.296 E248.06537
G1 X160.424 Y95.296 E248.27789
G1 X160.991 Y94.73 E248.37402
G1 X162.096 Y91.257 E248.81137
G1 X162.428 Y90.926 E248.86763
G1 X162.588 Y88.841 E249.11856
G1 X162.905 Y88.205 E249.20384
G1 X163.034 Y84.354 E249.66622
G1 X163.038 Y84.229 E249.68122
G1 X163.046 Y83.998 E249.70896
G0 X163.224 Y84.235
G1 X163.347 Y84.259 E249.72094
G1 X163.927 Y84.376 E249.79194
G1 X163.927 Y89.078 E250.35618
G1 X163.152 Y92.021 E250.72138
G1 X162.674 Y92.817 E250.8328
G1 X162.518 Y93.753 E250.94667
G1 X162.034 Y94.398 E251.04344
G1 X162.034 Y95.667 E251.19572
G1 X161.453 Y96.537 E251.32126
G1 X161.372 Y96.659 E251.33883
G1 X161.478 Y96.868 E251.36696
G1 X161.624 Y96.874 E251.38449
G1 X165.066 Y97.024 E251.79792
G1 X165.164 Y97.513 E251.85777
G1 X165.167 Y97.528 E251.8596
G1 X164.856 Y97.735 E251.90444
G1 X164.84 Y97.735 E251.90636
G1 X161.363 Y97.735 E252.3236
G1 X160.944 Y98.154 E252.3947
G1 X160.313 Y101.783 E252.83672
G1 X159.984 Y102.111 E252.89246
G1 X159.984 Y103.736 E253.08746
G1 X159.506 Y105.008 E253.25053
G1 X159.83 Y107.765 E253.58364
G1 X160.457 Y109.331 E253.78607
G1 X160.457 Y109.995 E253.86575
G1 X161.032 Y110.685 E253.97353
G1 X160.736 Y110.981 E254.02376
G1 X160.766 Y111.055 E254.03334
G1 X160.838 Y111.228 E254.05583
G1 X160.931 Y111.228 E254.06699
G1 X160.996 Y111.385 E254.08738
G1 X161.089 Y111.385 E254.09854
G1 X161.154 Y111.543 E254.11904
G1 X161.549 Y111.543 E254.16644
G1 X161.604 Y111.543 E254.17304
G1 X161.549 Y111.869 E254.19007
G1 X162.599 Y113.219 E254.3953
G1 X162.428 Y113.389 E254.42424
G1 X165.189 Y116.311 E254.90665
G1 X165.189 Y118.557 E255.17617
G1 X164.571 Y120.039 E255.36885
G1 X164.516 Y120.172 E255.38612
G1 X164.45 Y120.33 E255.40667
G1 X164.411 Y120.343 E255.41161
G1 X164.327 Y120.371 E255.42223
G0 X164.327 Y120.33
G0 X164.327 Y120.092
G1 X164.225 Y119.99 E255.43604
G1 X163.854 Y119.62 E255.49892
G1 X163.854 Y118.783 E255.59936
G1 X164.348 Y116.971 E255.82473
G1 X161.33 Y113.476 E256.37886
G1 X161.33 Y113.013 E256.43442
G1 X160.554 Y111.927 E256.59459
G1 X160.675 Y111.321 E256.66874
G0 X160.7 Y111.199
G0 X160.703 Y111.184
G0 X160.725 Y111.074
G0 X160.698 Y111.061
G1 X159.996 Y110.71 E256.76293
G1 X159.279 Y109.85 E256.89729
G1 X159.279 Y108.924 E257.00841
G1 X158.648 Y107.82 E257.161
G1 X158.648 Y103.627 E257.66416
G1 X159.272 Y99.726 E258.13823
G1 X159.896 Y98.166 E258.33985
G1 X160.005 Y97.893 E258.37513
G1 X159.712 Y97.893 E258.39574
G1 X159.71 Y97.893 E258.39598
G1 X156.688 Y97.893 E258.75862
G1 X156.459 Y97.893 E258.7861
G1 X155.967 Y97.893 E258.84514
G1 X155.967 Y97.561 E258.88498
G0 X156.044 Y97.58
G1 X156.459 Y97.684 E258.91788
G1 X156.62 Y97.522 E258.93923
G1 X156.657 Y97.485 E258.94551
G1 X158.462 Y97.034 E259.16877
G1 X159.782 Y97.2 E259.32842
G1 X160.624 Y96.358 E259.47131
G1 X160.066 Y95.798 E259.56618
G1 X159.347 Y96.158 E259.66267
G1 X158.387 Y96.158 E259.77787
G1 X157.915 Y96.473 E259.84596
G1 X156.486 Y96.473 E260.01744
G1 X155.669 Y97.126 E260.14295
G1 X155.166 Y97.294 E260.20659
G1 X154.871 Y97.735 E260.27026
G1 X154.422 Y97.735 E260.32414
G1 X153.591 Y98.566 E260.46516
G1 X153.749 Y98.724 E260.49198
G1 X154.106 Y99.082 E260.55265
G1 X154.338 Y99.082 E260.58049
G1 X154.434 Y99.082 E260.59201
G1 X155.409 Y99.082 E260.70901
G1 X155.409 Y100.377 E260.86441
G1 X154.936 Y100.849 E260.94459
G1 X154.936 Y101.309 E260.99979
G1 X154.147 Y101.94 E261.12103
G1 X154.147 Y102.208 E261.15319
G1 X153.766 Y102.335 E261.20138
G1 X151.681 Y104.419 E261.55513
G1 X151.54 Y104.56 E261.57906
G1 X151.681 Y104.701 E261.59451
G1 X152.266 Y105.285 E261.6937
G1 X152.578 Y107.307 E261.93922
G1 X153.574 Y109.134 E262.18892
G1 X154.894 Y109.699 E262.36122
G1 X155.139 Y109.332 E262.41417
G1 X155.243 Y109.177 E262.43657
G1 X155.359 Y109.177 E262.45049
G1 X155.48 Y109.318 E262.47278
G1 X158.148 Y112.429 E262.96459
G1 X159.251 Y113.394 E263.14045
G1 X159.38 Y113.507 E263.16103
G1 X159.404 Y113.58 E263.17025
G1 X159.41 Y113.598 E263.17253
G0 X159.395 Y113.583
G1 X159.274 Y113.704 E263.19307
G1 X159.001 Y113.977 E263.2394
G1 X159.093 Y114.2 E263.26834
G1 X159.079 Y114.215 E263.27081
G0 X158.922 Y114.058
G1 X155.998 Y111.134 E263.76702
G1 X154.482 Y111.302 E263.95006
G1 X154.278 Y111.324 E263.97468
G1 X154.306 Y111.527 E263.99041
G1 X154.307 Y111.528 E263.99058
G1 X154.471 Y112.677 E264.12986
G1 X154.492 Y112.708 E264.13435
G1 X154.604 Y112.877 E264.15868
G0 X154.471 Y112.877
G1 X154.24 Y112.877 E264.16416
G1 X154.135 Y113.034 E264.18683
G1 X154.001 Y113.237 E264.21601
G1 X153.829 Y113.065 E264.23391
G1 X153.09 Y112.326 E264.35933
G1 X151.98 Y110.426 E264.62338
G1 X148.746 Y107.515 E265.14552
G1 X148.121 Y107.515 E265.22052
G1 X147.744 Y107.139 E265.28442
G1 X147.601 Y106.562 E265.35575
G1 X147.549 Y106.353 E265.3816
G1 X147.344 Y106.421 E265.39799
G1 X146.87 Y106.579 E265.45795
G1 X146.651 Y106.652 E265.48565
G1 X146.753 Y106.858 E265.50278
G1 X146.754 Y106.859 E265.50295
G1 X146.781 Y106.911 E265.50999
G1 X146.925 Y107.2 E265.54873
G1 X146.603 Y107.2 E265.57093
G1 X146.602 Y107.2 E265.57105
G1 X146.364 Y107.2 E265.59961
G1 X145.593 Y108.163 E265.74765
G1 X145.824 Y108.626 E265.80974
G1 X147.96 Y110.597 E266.15851
G1 X148.282 Y110.597 E266.19715
G1 X149.768 Y111.803 E266.4268
G1 X149.912 Y111.92 E266.44907
G1 X150.669 Y112.535 E266.56611
G1 X150.773 Y112.619 E266.58215
G1 X151.181 Y112.789 E266.63519
G1 X151.818 Y113.055 E266.71803
G1 X152.072 Y113.161 E266.75106
G1 X152.659 Y113.406 E266.82739
G1 X153 Y113.747 E266.88526
G1 X152.991 Y113.766 E266.88778
G1 X152.581 Y113.59 E266.90168
G1 X151.998 Y113.34 E266.93891
G1 X151.664 Y113.423 E266.96931
G1 X151.137 Y112.896 E267.02843
G1 X150.73 Y112.795 E267.04629
G1 X150.505 Y112.738 E267.0541
G1 X149.812 Y112.045 E267.11681
G1 X149.646 Y112.128 E267.13347
G1 X149.368 Y112.267 E267.17077
G1 X149.367 Y112.268 E267.17094
G1 X149.119 Y112.391 E267.20415
G1 X149.316 Y112.587 E267.22396
G1 X149.548 Y112.819 E267.26333
G1 X149.573 Y112.844 E267.26757
G1 X149.573 Y112.921 E267.27681
G1 X149.573 Y113.119 E267.30057
G0 X149.592 Y113.119
G1 X150.26 Y113.119 E267.38073
G1 X150.341 Y113.359 E267.41113
G1 X150.346 Y113.374 E267.41303
G0 X150.333 Y113.363
G0 X150.217 Y113.34
G1 X149.592 Y113.216 E267.44208
G1 X149.55 Y113.131 E267.44343
G0 X149.446 Y112.921
G1 X148.98 Y112.727 E267.504
G1 X147.501 Y112.11 E267.69631
G1 X143.321 Y109.218 E268.30626
G1 X143.24 Y109.259 E268.31715
G1 X142.99 Y109.009 E268.35958
G1 X142.832 Y108.853 E268.38622
G1 X142.438 Y109.244 E268.45283
G1 X142.54 Y109.492 E268.48501
G1 X142.633 Y109.492 E268.49617
G1 X142.698 Y109.65 E268.51667
G1 X142.782 Y109.65 E268.52675
G1 X143.169 Y110.296 E268.61712
G1 X143.18 Y110.315 E268.61975
G1 X143.085 Y110.362 E268.63247
G1 X142.948 Y110.43 E268.65082
G1 X142.948 Y110.677 E268.68046
G1 X143.084 Y110.745 E268.69871
G1 X143.195 Y110.801 E268.71363
G1 X143.066 Y111.059 E268.74824
G1 X144.285 Y112.449 E268.9701
G1 X147.115 Y113.864 E269.34979
G1 X147.948 Y115.03 E269.52174
G1 X148.915 Y114.869 E269.63938
G1 X149.217 Y115.17 E269.69055
G1 X149.673 Y115.17 E269.74527
G1 X150.146 Y115.801 E269.8399
G1 X150.485 Y115.801 E269.88058
G1 X151.874 Y117.036 E270.10362
G1 X152.659 Y117.349 E270.20503
G1 X153.881 Y118.571 E270.41241
G1 X155.902 Y120.904 E270.7828
G1 X156.22 Y122.016 E270.92159
G1 X156.397 Y122.193 E270.95163
G1 X157.018 Y122.813 E271.05693
G1 X157.5 Y123.936 E271.20358
G1 X157.979 Y124.256 E271.27271
G1 X158.105 Y124.495 E271.30513
G1 X158.195 Y124.665 E271.32821
G0 X157.943 Y124.581
G1 X157.802 Y124.384 E271.32978
G1 X157.489 Y123.945 E271.34778
G1 X156.795 Y122.974 E271.4007
G1 X156.304 Y122.287 E271.45143
G1 X155.648 Y122.613 E271.53933
G1 X155.498 Y122.463 E271.56479
G1 X155.251 Y122.565 E271.59686
G1 X155.251 Y122.613 E271.60009
G1 X155.251 Y123.256 E271.67725
G1 X155.567 Y123.57 E271.73071
G1 X155.567 Y127.714 E272.22799
G1 X155.454 Y128.053 E272.27087
G1 X154.795 Y128.218 E272.35239
G1 X154.473 Y130.96 E272.68369
G1 X153.227 Y132.051 E272.88243
G1 X153.038 Y132.662 E272.95917
G1 X152.947 Y132.96 E272.99656
G1 X152.899 Y133.115 E273.01604
G1 X152.654 Y132.87 E273.03067
G1 X152.654 Y132.558 E273.06377
G1 X152.654 Y132.489 E273.07205
G1 X152.97 Y129.334 E273.45255
G1 X152.97 Y125.104 E273.96015
G1 X153.285 Y124.315 E274.06209
G1 X153.285 Y123.289 E274.18521
G1 X152.309 Y121.012 E274.4825
G1 X150.368 Y118.908 E274.826
G1 X148.4 Y117.925 E275.08999
G1 X147.962 Y117.925 E275.14255
G1 X147.371 Y117.333 E275.24293
G1 X145.963 Y116.551 E275.4362
G1 X145.456 Y115.874 E275.53769
G1 X145.141 Y115.874 E275.57549
G1 X144.667 Y115.243 E275.6702
G1 X144.17 Y115.243 E275.72984
G1 X142.79 Y114.016 E275.95143
G1 X140.99 Y113.035 E276.19742
G1 X140.225 Y113.035 E276.28922
G1 X139.499 Y113.761 E276.41243
G1 X139.211 Y114.77 E276.53835
G1 X138.475 Y114.77 E276.62667
G1 X137.443 Y114.081 E276.77557
G1 X137.011 Y114.514 E276.84897
G1 X136.84 Y114.686 E276.87807
G1 X137.042 Y114.82 E276.89592
G1 X137.169 Y114.905 E276.91426
G1 X137.427 Y115.077 E276.95147
G1 X137.427 Y115.15 E276.96023
G1 X137.138 Y115.265 E276.98409
G1 X136.638 Y115.465 E277.04871
G1 X136.638 Y115.991 E277.11183
G1 X136.422 Y116.208 E277.14857
G1 X135.036 Y116.515 E277.31892
G1 X133.73 Y117.168 E277.49414
G1 X132.523 Y118.203 E277.68494
G1 X132.707 Y119.484 E277.84024
G1 X135.654 Y122.268 E278.32673
G1 X135.972 Y122.268 E278.36489
G1 X137.55 Y123.688 E278.61963
G1 X138.024 Y123.688 E278.67651
G1 X140.822 Y126.175 E279.12573
G1 X141.924 Y126.805 E279.27806
G1 X144.367 Y129.249 E279.69273
G1 X144.367 Y129.578 E279.73221
G1 X145.193 Y130.238 E279.85909
G1 X145.813 Y131.634 E280.04239
G1 X147.049 Y133.334 E280.29461
G1 X147.049 Y133.811 E280.35185
G1 X147.68 Y134.6 E280.47308
G1 X147.68 Y135.05 E280.52708
G1 X149.111 Y137.912 E280.91106
G1 X149.412 Y139.117 E281.0601
G1 X149.262 Y140.313 E281.20475
G1 X148.663 Y141.813 E281.39857
G1 X147.68 Y142.468 E281.54031
G1 X147.68 Y144.235 E281.75235
G1 X148.311 Y144.865 E281.85935
G1 X148.311 Y146.16 E282.01475
G1 X147.68 Y147.58 E282.20122
G1 X147.68 Y149.028 E282.37498
G1 X148.158 Y149.188 E282.43547
G1 X148.284 Y152.571 E282.84171
G1 X148.297 Y152.939 E282.8859
G1 X147.981 Y152.749 E282.9107
G1 X147.884 Y152.691 E282.92426
G1 X147.445 Y151.521 E283.07422
G1 X147.284 Y150.076 E283.24869
G1 X146.588 Y149.032 E283.39926
G1 X145.898 Y148.801 E283.48657
G1 X145.4 Y149.631 E283.60273
G1 X144.601 Y149.631 E283.69861
G1 X144.052 Y150.73 E283.84603
G1 X144.052 Y151.534 E283.94251
G1 X144.052 Y151.916 E283.98835
G1 X143.976 Y151.954 E283.99854
G1 X143.706 Y151.684 E284.02762
G1 X143.704 Y151.682 E284.02796
G1 X143.621 Y151.598 E284.04213
G1 X143.537 Y151.682 E284.05131
G1 X143.121 Y152.098 E284.12191
G1 X142.936 Y153.027 E284.23558
G1 X143.258 Y153.513 E284.30553
G1 X143.099 Y155.902 E284.59285
G1 X143.355 Y156.157 E284.63621
G1 X143.496 Y156.298 E284.66014
G1 X143.355 Y156.439 E284.67559
G1 X143.105 Y156.688 E284.71793
G1 X143.105 Y160.009 E285.11645
G1 X143.579 Y160.482 E285.19681
G1 X143.579 Y160.893 E285.24613
G1 X143.579 Y160.956 E285.25369
G1 X143.421 Y160.893 E285.26437
G0 X143.421 Y160.956
G1 X143.421 Y162.01 E285.39085
G1 X142.474 Y162.484 E285.51793
G1 X142.474 Y163.252 E285.61009
G1 X142.073 Y163.386 E285.66082
G1 X141.779 Y163.827 E285.72442
G1 X140.573 Y163.827 E285.86914
G1 X140.248 Y163.338 E285.9396
G1 X138.952 Y163.523 E286.0967
G1 X138.478 Y163.998 E286.17722
G1 X137.447 Y164.17 E286.30265
G1 X137.258 Y165.677 E286.48491
G1 X137.513 Y165.931 E286.5281
G1 X137.618 Y166.036 E286.54592
G0 X137.408 Y166.036
G1 X136.833 Y166.419 E286.62882
G1 X136.559 Y167.103 E286.71725
G1 X135.988 Y166.96 E286.78788
G1 X135.522 Y167.426 E286.86696
G1 X135.002 Y167.254 E286.93269
G1 X134.8 Y167.655 E286.98657
G1 X133.956 Y167.992 E287.09562
G1 X133.956 Y168.446 E287.1501
G1 X132.757 Y168.745 E287.29839
G1 X132.513 Y169.233 E287.36386
G1 X132.55 Y169.307 E287.37379
G0 X132.501 Y169.298
G1 X131.968 Y169.19 E287.43905
G1 X129.535 Y169.19 E287.73101
G1 X128.887 Y169.515 E287.818
G1 X128.751 Y169.583 E287.83625
G1 X128.751 Y169.83 E287.86589
G1 X128.887 Y169.898 E287.88414
G1 X129.067 Y169.988 E287.90829
G1 X129.067 Y170.528 E287.97309
G1 X128.751 Y170.686 E288.01548
G1 X128.751 Y170.926 E288.04428
G1 X128.56 Y170.926 E288.0672
G0 X128.536 Y170.902
G1 X126.826 Y169.19 E288.35757
G1 X126.426 Y169.19 E288.40557
G1 X126.351 Y169.19 E288.41457
G1 X126.236 Y169.075 E288.43408
G1 X126.426 Y168.886 E288.45807
G0 X126.382 Y168.857
G1 X125.749 Y168.435 E288.54936
G1 X125.545 Y168.299 E288.57879
G1 X125.454 Y168.527 E288.59679
G1 X125.202 Y169.154 E288.67788
G1 X124.561 Y168.994 E288.75716
G1 X124.366 Y169.578 E288.83104
G1 X123.546 Y170.125 E288.94933
G1 X122.794 Y169.974 E289.04137
G1 X121.598 Y170.273 E289.18931
G1 X121.147 Y169.821 E289.26593
G1 X120.625 Y169.821 E289.32857
G1 X120.217 Y170.637 E289.43805
G1 X120.346 Y171.025 E289.48711
G1 X119.818 Y171.288 E289.5579
G1 X119.76 Y171.317 E289.56568
G1 X119.76 Y171.454 E289.58212
G1 X119.76 Y171.479 E289.58512
G0 X119.711 Y171.463
G0 X119.687 Y171.454
G0 X119.687 Y171.317
G1 X119.687 Y171.026 E289.59912
G1 X118.706 Y170.289 E289.74636
G0 X119.007 Y169.891
G0 X120.208 Y164.137
G0 X119.856 Y163.783
G1 X120.318 Y163.322 E289.82468
G1 X120.318 Y161.244 E290.07404
G1 X120.843 Y160.368 E290.19659
G1 X120.318 Y159.844 E290.2856
G1 X120.318 Y159.273 E290.35412
G1 X120.318 Y159.25 E290.35688
G1 X120.318 Y158.788 E290.41232
G1 X120.365 Y158.764 E290.41865
G1 X120.584 Y159.092 E290.46598
